!!!!SEGMENT: pl-cz--iii-589--002_rygall-ignacy--gentes-laudate-mariam-o-beatam-matrem.krn
!!!cenid: 17xx:1103
!!!COM: Rygall, Ignacy
!!!COM-rismid: pe30110281
!!!CDT: <1750->1799
!!!CNT:
!!!OPR: Gentes laudate Mariam
!!!OTL: O beatam Matrem
!!!OMV: 002
!!!PDT:
!!!AGN:
!!!SMS-siglum: PL-CZ
!!!SMS-shelfmark: III-589
!!!SMS-shelfwork: 001-002 M
!!!SMS-variant:
!!!SMS-altvar:
!!!NIFC-rismid: 300001124
!!!URL-scan: http://repozytorium.nifc.pl/skany/pl-cz-nut--iii-589
!!!ONB-nifc: UWAGA: części Gentes laudate Mariam: Euntre (+ Gentes laudate Mariam (Basso solo)), O beatam matrem (Allegro molto), Huic ergo corde pio (Andantino), Coro – Audi te petentes, O clemens o pia (Andantino)
!!!key: G
**kern	**dynam	**kern	**dynam	**kern	**dynam	**kern	**dynam	**kern	**text	**kern	**kern
*part7	*part7	*part6	*part6	*part5	*part5	*part4	*part4	*part3	*part3	*part2	*part1
*group3	*	*group2	*	*group2	*	*group2	*	*group1	*group1	*group1	*group1
*staff7	*	*staff6	*	*staff5	*	*staff4	*	*staff3	*staff3	*staff2	*staff1
*I"Clavi Cembalo	*	*I"Viola	*	*I"Violino Secondo	*	*I"Violino Primo	*	*I"Baſso Voce	*	*I"Canto 2do	*I"Canto 1mo
*I'cemb	*	*I'vla	*	*I'vl 2	*	*I'vl 1	*	*I'B	*	*I'S 2	*I'S 1
*Icemba	*	*Iviola	*	*Ivioln	*	*Ivioln	*	*Ibass	*	*Isoprn	*Isoprn
*ICklav	*	*ICstr	*	*ICstr	*	*ICstr	*	*ICvox	*	*ICvox	*ICvox
*clefF4	*	*clefC3	*	*clefG2	*	*clefG2	*	*clefF4	*	*clefC1	*clefC1
*k[f#]	*	*k[f#]	*	*k[f#]	*	*k[f#]	*	*k[f#]	*	*k[f#]	*k[f#]
*G:	*	*G:	*	*G:	*	*G:	*	*G:	*	*G:	*G:
*M4/4	*	*M4/4	*	*M4/4	*	*M4/4	*	*M4/4	*	*M4/4	*M4/4
*met(c)	*	*met(c)	*	*met(c)	*	*met(c)	*	*met(c)	*	*met(c)	*met(c)
=1	=1	=1	=1	=1	=1	=1	=1	=1	=1	=1	=1
*	*	*	*	*^	*	*	*	*	*	*	*
*2\right	*2\right	*2\right	*2\right	*2\right	*2\right	*2\right	*2\right	*2\right	*2\right	*2\right	*2\right	*2\right
!!LO:TX:t=P:problem:all\left, middle, right:global
!	!	!	!	!	!	!	!	!	!LO:TX:a:t=allegro molto	!	!	!
!LO:TX:a:t=allo Molto	!	!LO:TX:a:t=allo molto	!	!LO:TX:t=allo molto	!	!	!LO:TX:t=allo molto	!	!LO:TX:a:t=24	!	!LO:TX:a:t=Entre con Aria Tace	!LO:TX:a:t=Entre con Aria Tace
8G\L	.	8g\L	.	16d/LL	16B\LL	.	2g\	.	00r	.	1ryy	1ryy
.	.	.	.	16d/	16B\	.	.	.	.	.	.	.
8G\	.	8g\	.	16d/	16B\	.	.	.	.	.	.	.
.	.	.	.	16d/JJ	16B\JJ	.	.	.	.	.	.	.
8G\	.	8g\	.	16d/LL	16B\LL	.	.	.	.	.	.	.
.	.	.	.	16d/	16B\	.	.	.	.	.	.	.
8G\J	.	8g\J	.	16d/	16B\	.	.	.	.	.	.	.
.	.	.	.	16d/JJ	16B\JJ	.	.	.	.	.	.	.
8G\L	.	8g\L	.	16d/LL	16B\LL	.	4b\	.	.	.	.	.
.	.	.	.	16d/	16B\	.	.	.	.	.	.	.
8G\	.	8g\	.	16d/	16B\	.	.	.	.	.	.	.
.	.	.	.	16d/JJ	16B\JJ	.	.	.	.	.	.	.
8G\	.	8g\	.	16d/LL	16B\LL	.	4dd\	.	.	.	.	.
.	.	.	.	16d/	16B\	.	.	.	.	.	.	.
8G\J	.	8g\J	.	16d/	16B\	.	.	.	.	.	.	.
.	.	.	.	16d/JJ	16B\JJ	.	.	.	.	.	.	.
=2	=2	=2	=2	=2	=2	=2	=2	=2	=2	=2	=2	=2
*tremolo	*	*tremolo	*	*tremolo	*tremolo	*	*	*	*	*	*	*
8A\L	.	8a\L	.	16d/LL	16c\LL	.	8dd\L	.	.	.	1ryy	1ryy
.	.	.	.	16d/	16c\	.	.	.	.	.	.	.
8A\	.	8a\	.	16d/	16c\	.	16ee\L	.	.	.	.	.
.	.	.	.	16d/	16c\	.	16b\JJ	.	.	.	.	.
8A\	.	8a\	.	16d/	16c\	.	4cc\	.	.	.	.	.
.	.	.	.	16d/	16c\	.	.	.	.	.	.	.
8A\J	.	8a\J	.	16d/	16c\	.	.	.	.	.	.	.
.	.	.	.	16d/JJ	16c\JJ	.	.	.	.	.	.	.
*Xtremolo	*	*Xtremolo	*	*Xtremolo	*Xtremolo	*	*	*	*	*	*	*
8A\L	.	8a\L	.	16d/LL	16c\LL	.	2r	.	.	.	.	.
.	.	.	.	16d/	16c\	.	.	.	.	.	.	.
8A\	.	8a\	.	16d/	16c\	.	.	.	.	.	.	.
.	.	.	.	16d/JJ	16c\JJ	.	.	.	.	.	.	.
8G\	.	8g\	.	16d/LL	16B\LL	.	.	.	.	.	.	.
.	.	.	.	16d/	16B\	.	.	.	.	.	.	.
8G\J	.	8g\J	.	16d/	16B\	.	.	.	.	.	.	.
.	.	.	.	16d/JJ	16B\JJ	.	.	.	.	.	.	.
=3	=3	=3	=3	=3	=3	=3	=3	=3	=3	=3	=3	=3
*tremolo	*	*tremolo	*	*tremolo	*tremolo	*	*	*	*	*	*	*
8F#\L	.	8d\L	.	16d/LL	16A\LL	.	2ccc\	.	.	.	1ryy	1ryy
.	.	.	.	16d/	16A\	.	.	.	.	.	.	.
8F#\	.	8d\	.	16d/	16A\	.	.	.	.	.	.	.
.	.	.	.	16d/	16A\	.	.	.	.	.	.	.
8F#\	.	8d\	.	16d/	16A\	.	.	.	.	.	.	.
.	.	.	.	16d/	16A\	.	.	.	.	.	.	.
8F#\J	.	8d\J	.	16d/	16A\	.	.	.	.	.	.	.
.	.	.	.	16d/JJ	16A\JJ	.	.	.	.	.	.	.
8F#\L	.	8d\L	.	16d/LL	16A\LL	.	4.d/	.	.	.	.	.
.	.	.	.	16d/	16A\	.	.	.	.	.	.	.
8F#\	.	8d\	.	16d/	16A\	.	.	.	.	.	.	.
.	.	.	.	16d/	16A\	.	.	.	.	.	.	.
8F#\	.	8d\	.	16d/	16A\	.	.	.	.	.	.	.
.	.	.	.	16d/	16A\	.	.	.	.	.	.	.
8F#\J	.	8d\J	.	16d/	16A\	.	8cc\	.	.	.	.	.
.	.	.	.	16d/JJ	16A\JJ	.	.	.	.	.	.	.
=4	=4	=4	=4	=4	=4	=4	=4	=4	=4	=4	=4	=4
.	.	.	.	.	.	.	8qqdd/	.	.	.	.	.
8G\L	.	8d\L	.	16d/LL	16B\LL	.	4cc\	.	.	.	1ryy	1ryy
.	.	.	.	16d/	16B\	.	.	.	.	.	.	.
8G\	.	8d\	.	16d/	16B\	.	.	.	.	.	.	.
.	.	.	.	16d/	16B\	.	.	.	.	.	.	.
8G\	.	8d\	.	16d/	16B\	.	4b\	.	.	.	.	.
.	.	.	.	16d/	16B\	.	.	.	.	.	.	.
8G\J	.	8d\J	.	16d/	16B\	.	.	.	.	.	.	.
.	.	.	.	16d/JJ	16B\JJ	.	.	.	.	.	.	.
8G\L	.	8d\L	.	2d/	16B\LL	.	2ddd\	.	.	.	.	.
.	.	.	.	.	16B\	.	.	.	.	.	.	.
8G\	.	8d\	.	.	16B\	.	.	.	.	.	.	.
.	.	.	.	.	16B\	.	.	.	.	.	.	.
8G\	.	8d\	.	.	16B\	.	.	.	.	.	.	.
.	.	.	.	.	16B\	.	.	.	.	.	.	.
8G\J	.	8d\J	.	.	16B\	.	.	.	.	.	.	.
.	.	.	.	.	16B\JJ	.	.	.	.	.	.	.
!	!	!	!	!LO:LB:g=original	!	!	!	!	!	!	!	!
=5	=5	=5	=5	=5	=5	=5	=5	=5	=5	=5	=5	=5
8F#\L	.	8d\L	.	16d/LL	16A\LL	.	4ccc|\	.	00r	.	1ryy	1ryy
.	.	.	.	16d/	16A\	.	.	.	.	.	.	.
8F#\	.	8d\	.	16d/	16A\	.	.	.	.	.	.	.
.	.	.	.	16d/	16A\	.	.	.	.	.	.	.
8F#\	.	8d\	.	16d/	16A\	.	4aa|\	.	.	.	.	.
.	.	.	.	16d/	16A\	.	.	.	.	.	.	.
8F#\J	.	8d\J	.	16d/	16A\	.	.	.	.	.	.	.
.	.	.	.	16d/JJ	16A\JJ	.	.	.	.	.	.	.
8F#\L	.	8d\L	.	16d/LL	16A\LL	.	4ff#|\	.	.	.	.	.
.	.	.	.	16d/	16A\	.	.	.	.	.	.	.
8F#\	.	8d\	.	16d/	16A\	.	.	.	.	.	.	.
.	.	.	.	16d/	16A\	.	.	.	.	.	.	.
8F#\	.	8d\	.	16d/	16A\	.	4cc|\	.	.	.	.	.
.	.	.	.	16d/	16A\	.	.	.	.	.	.	.
8F#\J	.	8d\J	.	16d/	16A\	.	.	.	.	.	.	.
.	.	.	.	16d/JJ	16A\JJ	.	.	.	.	.	.	.
=6	=6	=6	=6	=6	=6	=6	=6	=6	=6	=6	=6	=6
8G\L	.	8G/L	.	16d/LL	16B\LL	.	8b\L	.	.	.	1ryy	1ryy
.	.	.	.	16d/	16B\	.	.	.	.	.	.	.
8G\	.	8G/	.	16d/	16B\	.	16ee\L	.	.	.	.	.
.	.	.	.	16d/	16B\	.	16dd\JJ	.	.	.	.	.
8G\	.	8G/	.	16d/	16B\	.	4dd\	.	.	.	.	.
.	.	.	.	16d/	16B\	.	.	.	.	.	.	.
8G\J	.	8G/J	.	16d/	16B\	.	.	.	.	.	.	.
.	.	.	.	16d/JJ	16B\JJ	.	.	.	.	.	.	.
8G\L	.	8G/L	.	16d/LL	16B\LL	.	2ddd\	.	.	.	.	.
.	.	.	.	16d/	16B\	.	.	.	.	.	.	.
8G\	.	8G/	.	16d/	16B\	.	.	.	.	.	.	.
.	.	.	.	16d/	16B\	.	.	.	.	.	.	.
8G\	.	8G/	.	16d/	16B\	.	.	.	.	.	.	.
.	.	.	.	16d/	16B\	.	.	.	.	.	.	.
8G\J	.	8G/J	.	16d/	16B\	.	.	.	.	.	.	.
.	.	.	.	16d/JJ	16B\JJ	.	.	.	.	.	.	.
=7	=7	=7	=7	=7	=7	=7	=7	=7	=7	=7	=7	=7
8F#\L	.	8c\L	.	16d/LL	16A\LL	.	4ccc|\	.	.	.	1ryy	1ryy
.	.	.	.	16d/	16A\	.	.	.	.	.	.	.
8F#\	.	8c\	.	16d/	16A\	.	.	.	.	.	.	.
.	.	.	.	16d/	16A\	.	.	.	.	.	.	.
8F#\	.	8c\	.	16d/	16A\	.	4aa|\	.	.	.	.	.
.	.	.	.	16d/	16A\	.	.	.	.	.	.	.
8F#\J	.	8c\J	.	16d/	16A\	.	.	.	.	.	.	.
.	.	.	.	16d/JJ	16A\JJ	.	.	.	.	.	.	.
8D\L	.	8d\L	.	16d/LL	16A\LL	.	4ff#|\	.	.	.	.	.
.	.	.	.	16d/	16A\	.	.	.	.	.	.	.
8D\	.	8d\	.	16d/	16A\	.	.	.	.	.	.	.
.	.	.	.	16d/	16A\	.	.	.	.	.	.	.
8D\	.	8d\	.	16d/	16A\	.	4cc|\	.	.	.	.	.
.	.	.	.	16d/	16A\	.	.	.	.	.	.	.
8D\J	.	8d\J	.	16d/	16A\	.	.	.	.	.	.	.
.	.	.	.	16d/JJ	16A\JJ	.	.	.	.	.	.	.
*Xtremolo	*	*	*	*	*	*	*	*	*	*	*	*
!	!	!LO:LB:g=original	!	!	!	!	!LO:LB:g=original	!	!	!	!	!
=8	=8	=8	=8	=8	=8	=8	=8	=8	=8	=8	=8	=8
!LO:TX:t=P:problem:mixed beam	!	!	!	!	!	!	!	!	!	!	!	!
.	.	.	.	.	.	.	8qqcc/	.	.	.	.	.
8G\L	.	8G/L	.	16d/LL	16B\LL	.	8b\L	.	.	.	1ryy	1ryy
.	.	.	.	16d/	16B\	.	.	.	.	.	.	.
8GG/	.	8G/	.	16d/	16B\	.	(16a\L	.	.	.	.	.
.	.	.	.	16d/	16B\	.	16g\JJ)	.	.	.	.	.
8GG/	.	8G/	.	16d/	16B\	.	4g\	.	.	.	.	.
.	.	.	.	16d/	16B\	.	.	.	.	.	.	.
8GG/J	.	8G/J	.	16d/	16B\	.	.	.	.	.	.	.
.	.	.	.	16d/JJ	16B\JJ	.	.	.	.	.	.	.
*tremolo	*	*	*	*	*	*	*	*	*	*	*	*
8GG/L	.	8G/L	.	16d/LL	16B\LL	.	2r	.	.	.	.	.
.	.	.	.	16d/	16B\	.	.	.	.	.	.	.
8GG/	.	8G/	.	16d/	16B\	.	.	.	.	.	.	.
.	.	.	.	16d/	16B\	.	.	.	.	.	.	.
8GG/	.	8G/	.	16d/	16B\	.	.	.	.	.	.	.
.	.	.	.	16d/	16B\	.	.	.	.	.	.	.
8GG/J	.	8G/J	.	16d/	16B\	.	.	.	.	.	.	.
.	.	.	.	16d/JJ	16B\JJ	.	.	.	.	.	.	.
!LO:LB:g=original	!	!	!	!	!	!	!	!	!	!	!	!
=9	=9	=9	=9	=9	=9	=9	=9	=9	=9	=9	=9	=9
8C/L	.	8c\L	.	16e 16G/LL	2ryy	.	2ee\	.	00r	.	1ryy	1ryy
.	.	.	.	16e 16G/	.	.	.	.	.	.	.	.
8C/	.	8c\	.	16e 16G/	.	.	.	.	.	.	.	.
.	.	.	.	16e 16G/	.	.	.	.	.	.	.	.
8C/	.	8c\	.	16e 16G/	.	.	.	.	.	.	.	.
.	.	.	.	16e 16G/	.	.	.	.	.	.	.	.
8C/J	.	8c\J	.	16e 16G/	.	.	.	.	.	.	.	.
.	.	.	.	16e 16G/JJ	.	.	.	.	.	.	.	.
8C/L	.	8c\L	.	16e 16G/LL	2ryy	.	4c/	.	.	.	.	.
.	.	.	.	16e 16G/	.	.	.	.	.	.	.	.
8C/	.	8c\	.	16e 16G/	.	.	.	.	.	.	.	.
.	.	.	.	16e 16G/	.	.	.	.	.	.	.	.
8C/	.	8c\	.	16e 16G/	.	.	4ee\	.	.	.	.	.
.	.	.	.	16e 16G/	.	.	.	.	.	.	.	.
8C/J	.	8c\J	.	16e 16G/	.	.	.	.	.	.	.	.
.	.	.	.	16e 16G/JJ	.	.	.	.	.	.	.	.
=10	=10	=10	=10	=10	=10	=10	=10	=10	=10	=10	=10	=10
8BB/L	.	8B\L	.	16d 16G/LL	2ryy	.	16dd\LL	.	.	.	1ryy	1ryy
.	.	.	.	16d 16G/	.	.	16ee\	.	.	.	.	.
8BB/	.	8B\	.	16d 16G/	.	.	16dd\	.	.	.	.	.
.	.	.	.	16d 16G/	.	.	16cc\JJ	.	.	.	.	.
8BB/	.	8B\	.	16d 16G/	.	.	4b\	.	.	.	.	.
.	.	.	.	16d 16G/	.	.	.	.	.	.	.	.
8BB/J	.	8B\J	.	16d 16G/	.	.	.	.	.	.	.	.
.	.	.	.	16d 16G/JJ	.	.	.	.	.	.	.	.
8BB/L	.	8B\L	.	16d 16G/LL	2ryy	.	4r	.	.	.	.	.
.	.	.	.	16d 16G/	.	.	.	.	.	.	.	.
8BB/	.	8B\	.	16d 16G/	.	.	.	.	.	.	.	.
.	.	.	.	16d 16G/	.	.	.	.	.	.	.	.
8BB/	.	8B\	.	16d 16G/	.	.	4dd\	.	.	.	.	.
.	.	.	.	16d 16G/	.	.	.	.	.	.	.	.
8BB/J	.	8B\J	.	16d 16G/	.	.	.	.	.	.	.	.
.	.	.	.	16d 16G/JJ	.	.	.	.	.	.	.	.
*Xtremolo	*	*	*	*	*	*	*	*	*	*	*	*
=11	=11	=11	=11	=11	=11	=11	=11	=11	=11	=11	=11	=11
!LO:TX:t=P:problem:mixed beam	!	!	!	!	!	!	!	!	!	!	!	!
8FF#/L	.	8A\L	.	16d 16A/LL	2ryy	.	(8dd\L	.	.	.	1ryy	1ryy
.	.	.	.	16d 16A/	.	.	.	.	.	.	.	.
8FF#/	.	8A\	.	16d 16A/	.	.	8cc\)	.	.	.	.	.
.	.	.	.	16d 16A/	.	.	.	.	.	.	.	.
8F#\	.	8A\	.	16d 16A/	.	.	8aa|\	.	.	.	.	.
.	.	.	.	16d 16A/	.	.	.	.	.	.	.	.
8F#\J	.	8A\J	.	16d 16A/	.	.	8cc|\J	.	.	.	.	.
.	.	.	.	16d 16A/JJ	.	.	.	.	.	.	.	.
*tremolo	*	*	*	*	*	*	*	*	*	*	*	*
8G\L	.	8B\L	.	16d 16G/LL	2ryy	.	(8cc\L	.	.	.	.	.
.	.	.	.	16d 16G/	.	.	.	.	.	.	.	.
8G\	.	8B\	.	16d 16G/	.	.	8b\)	.	.	.	.	.
.	.	.	.	16d 16G/	.	.	.	.	.	.	.	.
8G\	.	8B\	.	16d 16G/	.	.	8gg|\	.	.	.	.	.
.	.	.	.	16d 16G/	.	.	.	.	.	.	.	.
8G\J	.	8B\J	.	16d 16G/	.	.	8b|\J	.	.	.	.	.
.	.	.	.	16d 16G/JJ	.	.	.	.	.	.	.	.
*Xtremolo	*	*	*	*	*	*	*	*	*	*	*	*
*	*	*	*	*v	*v	*	*	*	*	*	*	*
=12	=12	=12	=12	=12	=12	=12	=12	=12	=12	=12	=12
!	!	!	!	!LO:TX:b:t=mezo	!	!	!	!	!	!	!
.	.	.	.	.	.	8qqcc/	.	.	.	.	.
8F#\L	.	8d\L	.	16d/LL	.	4b\	.	.	.	1ryy	1ryy
.	.	.	.	16d/	.	.	.	.	.	.	.
8D\	.	8d\	.	16d/	.	.	.	.	.	.	.
.	.	.	.	16d/	.	.	.	.	.	.	.
8F#\	.	8d\	.	16d/	.	4a\	.	.	.	.	.
.	.	.	.	16d/	.	.	.	.	.	.	.
8D\J	.	8d\J	.	16d/	.	.	.	.	.	.	.
.	.	.	.	16d/JJ	.	.	.	.	.	.	.
8F#\L	.	8d\L	.	16d/LL	.	4r	.	.	.	.	.
.	.	.	.	16d/	.	.	.	.	.	.	.
8D\	.	8d\	.	16d/	.	.	.	.	.	.	.
.	.	.	.	16d/	.	.	.	.	.	.	.
!	!	!	!	!	!	!LO:TX:b:t=mezo	!	!	!	!	!
8F#\	.	8d\	.	16d/	.	8.a\L	.	.	.	.	.
.	.	.	.	16d/	.	.	.	.	.	.	.
8D\J	.	8d\J	.	16d/	.	.	.	.	.	.	.
.	.	.	.	16d/JJ	.	16cc\Jk	.	.	.	.	.
!	!	!	!	!LO:LB:g=original	!	!	!	!	!	!	!
=13	=13	=13	=13	=13-	=13	=13	=13	=13	=13	=13	=13
8G\L	.	8d\L	.	16d/LL	.	4b\	.	00r	.	1ryy	1ryy
.	.	.	.	16d/	.	.	.	.	.	.	.
8D\	.	8d\	.	16d/	.	.	.	.	.	.	.
.	.	.	.	16d/	.	.	.	.	.	.	.
8G\	.	8d\	.	16d/	.	4dd\	.	.	.	.	.
.	.	.	.	16d/	.	.	.	.	.	.	.
8D\J	.	8d\J	.	16d/	.	.	.	.	.	.	.
.	.	.	.	16d/JJ	.	.	.	.	.	.	.
8A\L	.	8d\L	.	16d/LL	.	4r	.	.	.	.	.
.	.	.	.	16d/	.	.	.	.	.	.	.
8D\	.	8d\	.	16d/	.	.	.	.	.	.	.
.	.	.	.	16d/	.	.	.	.	.	.	.
8A\	.	8d\	.	16d/	.	8.a/L	.	.	.	.	.
.	.	.	.	16d/	.	.	.	.	.	.	.
8D\J	.	8d\J	.	16d/	.	.	.	.	.	.	.
.	.	.	.	16d/JJ	.	16f#/Jk	.	.	.	.	.
=14	=14	=14	=14	=14	=14	=14	=14	=14	=14	=14	=14
8B\L	.	8d\L	.	16d/LL	.	4g/	.	.	.	1ryy	1ryy
.	.	.	.	16d/	.	.	.	.	.	.	.
8D\	.	8d\	.	16d/	.	.	.	.	.	.	.
.	.	.	.	16d/	.	.	.	.	.	.	.
8B\	.	8d\	.	16d/	.	4d/	.	.	.	.	.
.	.	.	.	16d/	.	.	.	.	.	.	.
8D\J	.	8d\J	.	16d/	.	.	.	.	.	.	.
.	.	.	.	16d/JJ	.	.	.	.	.	.	.
8F#\L	.	8d\L	.	16d/LL	.	4r	.	.	.	.	.
.	.	.	.	16d/	.	.	.	.	.	.	.
8D\	.	8d\	.	16d/	.	.	.	.	.	.	.
.	.	.	.	16d/	.	.	.	.	.	.	.
8F#\	.	8d\	.	16d/	.	8.a\L	.	.	.	.	.
.	.	.	.	16d/	.	.	.	.	.	.	.
8D\J	.	8d\J	.	16d/	.	.	.	.	.	.	.
.	.	.	.	16d/JJ	.	16cc\Jk	.	.	.	.	.
!	!	!	!	!	!	!LO:LB:g=original	!	!	!	!	!
=15	=15	=15	=15	=15	=15	=15	=15	=15	=15	=15	=15
8G\L	.	8d\L	.	16d/LL	.	4b\	.	.	.	1ryy	1ryy
.	.	.	.	16d/	.	.	.	.	.	.	.
8D\	.	8d\	.	16d/	.	.	.	.	.	.	.
.	.	.	.	16d/	.	.	.	.	.	.	.
8G\	.	8d\	.	16d/	.	4dd\	.	.	.	.	.
.	.	.	.	16d/	.	.	.	.	.	.	.
8D\J	.	8d\J	.	16d/	.	.	.	.	.	.	.
.	.	.	.	16d/JJ	.	.	.	.	.	.	.
!	!	!	!	!	!	!LO:TX:t=P:problem:4r poprawiona na 8r	!	!	!	!	!
8A\L	.	8d\L	.	16d/LL	.	8r	.	.	.	.	.
.	.	.	.	16d/	.	.	.	.	.	.	.
8D\	.	8d\	.	16d/	.	8cc\L	.	.	.	.	.
.	.	.	.	16d/	.	.	.	.	.	.	.
8A\	.	8d\	.	16d/	.	8a\	.	.	.	.	.
.	.	.	.	16d/	.	.	.	.	.	.	.
8D\J	.	8d\J	.	16d/	.	8f#\J	.	.	.	.	.
.	.	.	.	16d/JJ	.	.	.	.	.	.	.
=16	=16	=16	=16	=16	=16	=16	=16	=16	=16	=16	=16
8B\L	.	8d\L	.	16d/LL	.	4g/	.	.	.	1ryy	1ryy
.	.	.	.	16d/	.	.	.	.	.	.	.
8D\	.	8d\	.	16d/	.	.	.	.	.	.	.
.	.	.	.	16d/	.	.	.	.	.	.	.
8B\	.	8d\	.	16d/	.	4d/	.	.	.	.	.
.	.	.	.	16d/	.	.	.	.	.	.	.
8D\J	.	8d\J	.	16d/	.	.	.	.	.	.	.
.	.	.	.	16d/JJ	.	.	.	.	.	.	.
8F#\L	.	8d\L	.	16d/LL	.	4r	.	.	.	.	.
.	.	.	.	16d/	.	.	.	.	.	.	.
8D\	.	8d\	.	16d/	.	.	.	.	.	.	.
.	.	.	.	16d/	.	.	.	.	.	.	.
8F#\	.	8d\	.	16d/	.	8.a\L	.	.	.	.	.
.	.	.	.	16d/	.	.	.	.	.	.	.
8D\J	.	8d\J	.	16d/	.	.	.	.	.	.	.
.	.	.	.	16d/JJ	.	16cc\Jk	.	.	.	.	.
!	!	!LO:LB:g=original	!	!	!	!	!	!	!	!	!
=17	=17	=17	=17	=17	=17	=17	=17	=17	=17	=17	=17
*	*	*	*	*^	*	*	*	*	*	*	*
!	!	!	!	!	!	!LO:DY:b:Bi:t=fortiſ	!	!	!	!	!	!
8G\L	.	8d 8G\L	.	16d/LL	16B\LL	ff	4b\	.	00r	.	1ryy	1ryy
.	.	.	.	16d/	16B\	.	.	.	.	.	.	.
8BB\	.	8d 8G\	.	16d/	16B\	.	.	.	.	.	.	.
.	.	.	.	16d/	16B\	.	.	.	.	.	.	.
8BB\	.	8d 8G\	.	16d/	16B\	.	4gg\	.	.	.	.	.
.	.	.	.	16d/	16B\	.	.	.	.	.	.	.
8BB\J	.	8d 8G\J	.	16d/	16B\	.	.	.	.	.	.	.
.	.	.	.	16d/JJ	16B\JJ	.	.	.	.	.	.	.
*tremolo	*	*	*	*	*	*	*	*	*	*	*	*
8BB\L	.	8d 8G\L	.	16d/LL	16B\LL	.	8gg|\L	.	.	.	.	.
.	.	.	.	16d/	16B\	.	.	.	.	.	.	.
8BB\	.	8d 8G\	.	16d/	16B\	.	8ffn|\	.	.	.	.	.
.	.	.	.	16d/	16B\	.	.	.	.	.	.	.
8BB\	.	8d 8G\	.	16d/	16B\	.	8ee|\	.	.	.	.	.
.	.	.	.	16d/	16B\	.	.	.	.	.	.	.
8BB\J	.	8d 8G\J	.	16d/	16B\	.	8dd#X|\J	.	.	.	.	.
.	.	.	.	16d/JJ	16B\JJ	.	.	.	.	.	.	.
*	*	*	*	*v	*v	*	*	*	*	*	*	*
!LO:LB:g=original	!	!	!	!	!	!	!	!	!	!	!
=18	=18	=18	=18	=18	=18	=18	=18	=18	=18	=18	=18
8C/L	.	8c\L	.	16e 16G/LL	.	4ee|\	.	.	.	1ryy	1ryy
.	.	.	.	16e 16G/	.	.	.	.	.	.	.
8C/	.	8c\	.	16e 16G/	.	.	.	.	.	.	.
.	.	.	.	16e 16G/	.	.	.	.	.	.	.
8C/	.	8c\	.	16e 16G/	.	4ee|\	.	.	.	.	.
.	.	.	.	16e 16G/	.	.	.	.	.	.	.
8C/J	.	8c\J	.	16e 16G/	.	.	.	.	.	.	.
.	.	.	.	16e 16G/JJ	.	.	.	.	.	.	.
8C/L	.	8c\L	.	16e 16G/LL	.	4ff#X|\	.	.	.	.	.
.	.	.	.	16e 16G/	.	.	.	.	.	.	.
8C/	.	8c\	.	16e 16G/	.	.	.	.	.	.	.
.	.	.	.	16e 16G/	.	.	.	.	.	.	.
8C/	.	8c\	.	16e 16G/	.	4gg|\	.	.	.	.	.
.	.	.	.	16e 16G/	.	.	.	.	.	.	.
8C/J	.	8c\J	.	16e 16G/	.	.	.	.	.	.	.
.	.	.	.	16e 16G/JJ	.	.	.	.	.	.	.
=19	=19	=19	=19	=19	=19	=19	=19	=19	=19	=19	=19
8D\L	.	8d\L	.	16g 16B/LL	.	2d/	.	.	.	1ryy	1ryy
.	.	.	.	16g 16B/	.	.	.	.	.	.	.
8D\	.	8d\	.	16g 16B/	.	.	.	.	.	.	.
.	.	.	.	16g 16B/	.	.	.	.	.	.	.
8D\	.	8d\	.	16g 16B/	.	.	.	.	.	.	.
.	.	.	.	16g 16B/	.	.	.	.	.	.	.
8D\J	.	8d\J	.	16g 16B/	.	.	.	.	.	.	.
.	.	.	.	16g 16B/JJ	.	.	.	.	.	.	.
8DD/L	.	8D/L	.	16f# 16A/LL	.	2aM\	.	.	.	.	.
.	.	.	.	16f# 16A/	.	.	.	.	.	.	.
8DD/	.	8D/	.	16f# 16A/	.	.	.	.	.	.	.
.	.	.	.	16f# 16A/	.	.	.	.	.	.	.
8DD/	.	8D/	.	16f# 16A/	.	.	.	.	.	.	.
.	.	.	.	16f# 16A/	.	.	.	.	.	.	.
8DD/J	.	8D/J	.	16f# 16A/	.	.	.	.	.	.	.
.	.	.	.	16f# 16A/JJ	.	.	.	.	.	.	.
*Xtremolo	*	*Xtremolo	*	*	*	*	*	*	*	*	*
!	!	!	!	!LO:LB:g=original	!	!	!	!	!	!	!
=20	=20	=20	=20	=20	=20	=20	=20	=20	=20	=20	=20
*	*	*	*	*^	*	*	*	*	*	*	*
8G\L	.	8g\L	.	16d/LL	16B\LL	.	4g/	.	.	.	2ryy	2ryy
.	.	.	.	16d/	16B\	.	.	.	.	.	.	.
8D\	.	8d\	.	16d/	16B\	.	.	.	.	.	.	.
.	.	.	.	16d/	16B\	.	.	.	.	.	.	.
8G\	.	8g\	.	16d/	16B\	.	8.bb\L	.	.	.	.	.
.	.	.	.	16d/	16B\	.	.	.	.	.	.	.
8D\J	.	8d\J	.	16d/	16B\	.	.	.	.	.	.	.
.	.	.	.	16d/JJ	16B\JJ	.	16bb\Jk	.	.	.	.	.
8G\L	.	8g\L	.	16d/LL	16B\LL	.	4bb\	.	.	.	2ryy	2ryy
.	.	.	.	16d/	16B\	.	.	.	.	.	.	.
8D\	.	8d\	.	16d/	16B\	.	.	.	.	.	.	.
.	.	.	.	16d/	16B\	.	.	.	.	.	.	.
8G\	.	8g\	.	16d/	16B\	.	4bb\	.	.	.	.	.
.	.	.	.	16d/	16B\	.	.	.	.	.	.	.
8D\J	.	8d\J	.	16d/	16B\	.	.	.	.	.	.	.
.	.	.	.	16d/JJ	16B\JJ	.	.	.	.	.	.	.
=21	=21	=21	=21	=21	=21	=21	=21	=21	=21	=21	=21	=21
8F#\L	.	8f#\L	.	16d/LL	16A\LL	.	4ccc\	.	00r	.	1ryy	1ryy
.	.	.	.	16d/	16A\	.	.	.	.	.	.	.
8D\	.	8d\	.	16d/	16A\	.	.	.	.	.	.	.
.	.	.	.	16d/	16A\	.	.	.	.	.	.	.
8F#\	.	8f#\	.	16d/	16A\	.	8cc\L	.	.	.	.	.
.	.	.	.	16d/	16A\	.	.	.	.	.	.	.
8D\J	.	8d\J	.	16d/	16A\	.	8cc\J	.	.	.	.	.
.	.	.	.	16d/JJ	16A\JJ	.	.	.	.	.	.	.
8F#\L	.	8f#\L	.	16d/LL	16A\LL	.	8.cc'\L	.	.	.	.	.
.	.	.	.	16d/	16A\	.	.	.	.	.	.	.
8D\	.	8d\	.	16d/	16A\	.	.	.	.	.	.	.
.	.	.	.	16d/	16A\	.	(32b\LL	.	.	.	.	.
.	.	.	.	.	.	.	32cc\JJJ)	.	.	.	.	.
8F#\	.	8f#\	.	16d/	16A\	.	8dd|\L	.	.	.	.	.
.	.	.	.	16d/	16A\	.	.	.	.	.	.	.
8D\J	.	8d\J	.	16d/	16A\	.	8cc|\J	.	.	.	.	.
.	.	.	.	16d/JJ	16A\JJ	.	.	.	.	.	.	.
!	!	!	!	!	!	!	!LO:LB:g=original	!	!	!	!	!
=22	=22	=22	=22	=22	=22	=22	=22	=22	=22	=22	=22	=22
8G\L	.	8g\L	.	16d/LL	16B\LL	.	4b\	.	.	.	1ryy	1ryy
.	.	.	.	16d/	16B\	.	.	.	.	.	.	.
8D\	.	8d\	.	16d/	16B\	.	.	.	.	.	.	.
.	.	.	.	16d/	16B\	.	.	.	.	.	.	.
8G\	.	8g\	.	16d/	16B\	.	8bb|\L	.	.	.	.	.
.	.	.	.	16d/	16B\	.	.	.	.	.	.	.
8D\J	.	8d\J	.	16d/	16B\	.	8bb|\J	.	.	.	.	.
.	.	.	.	16d/JJ	16B\JJ	.	.	.	.	.	.	.
8G\L	.	8g\L	.	16d/LL	16B\LL	.	4bb|\	.	.	.	.	.
.	.	.	.	16d/	16B\	.	.	.	.	.	.	.
8D\	.	8d\	.	16d/	16B\	.	.	.	.	.	.	.
.	.	.	.	16d/	16B\	.	.	.	.	.	.	.
8G\	.	8g\	.	16d/	16B\	.	4bb|\	.	.	.	.	.
.	.	.	.	16d/	16B\	.	.	.	.	.	.	.
8D\J	.	8d\J	.	16d/	16B\	.	.	.	.	.	.	.
.	.	.	.	16d/JJ	16B\JJ	.	.	.	.	.	.	.
=23	=23	=23	=23	=23	=23	=23	=23	=23	=23	=23	=23	=23
8F#\L	.	8f#\L	.	16d/LL	16A\LL	.	4ccc|\	.	.	.	1ryy	1ryy
.	.	.	.	16d/	16A\	.	.	.	.	.	.	.
8D\	.	8d\	.	16d/	16A\	.	.	.	.	.	.	.
.	.	.	.	16d/	16A\	.	.	.	.	.	.	.
8F#\	.	8f#\	.	16d/	16A\	.	8.cc|\L	.	.	.	.	.
.	.	.	.	16d/	16A\	.	.	.	.	.	.	.
8D\J	.	8d\J	.	16d/	16A\	.	.	.	.	.	.	.
.	.	.	.	16d/JJ	16A\JJ	.	16cc|\Jk	.	.	.	.	.
8F#\L	.	8f#\L	.	16d/LL	16A\LL	.	8.cc|\L	.	.	.	.	.
.	.	.	.	16d/	16A\	.	.	.	.	.	.	.
8D\	.	8d\	.	16d/	16A\	.	.	.	.	.	.	.
.	.	.	.	16d/	16A\	.	(32b\LL	.	.	.	.	.
.	.	.	.	.	.	.	32cc\JJJ)	.	.	.	.	.
8F#\	.	8f#\	.	16d/	16A\	.	8dd|\L	.	.	.	.	.
.	.	.	.	16d/	16A\	.	.	.	.	.	.	.
8D\J	.	8d\J	.	16d/	16A\	.	8cc|\J	.	.	.	.	.
.	.	.	.	16d/JJ	16A\JJ	.	.	.	.	.	.	.
*	*	*	*	*v	*v	*	*	*	*	*	*	*
!	!	!LO:LB:g=original	!	!	!	!	!	!	!	!	!
=24	=24	=24	=24	=24	=24	=24	=24	=24	=24	=24	=24
4G\	.	4g\	.	16b 16d 16G/LL	.	4b 4d/	.	.	.	1ryy	1ryy
.	.	.	.	16b 16d 16G/	.	.	.	.	.	.	.
.	.	.	.	16b 16d 16G/	.	.	.	.	.	.	.
.	.	.	.	16b 16d 16G/JJ	.	.	.	.	.	.	.
4GG/	.	4G/	.	16b 16d 16G/LL	.	4gg 4b 4d/	.	.	.	.	.
.	.	.	.	16b 16d 16G/	.	.	.	.	.	.	.
.	.	.	.	16b 16d 16G/	.	.	.	.	.	.	.
.	.	.	.	16b 16d 16G/JJ	.	.	.	.	.	.	.
4GG/	.	4G/	.	16b 16d 16G/LL	.	4gg 4b 4d/	.	.	.	.	.
.	.	.	.	16b 16d 16G/	.	.	.	.	.	.	.
.	.	.	.	16b 16d 16G/	.	.	.	.	.	.	.
.	.	.	.	16b 16d 16G/JJ	.	.	.	.	.	.	.
!LO:TX:b:t=V Sola voce	!	!LO:TX:b:t=V&colon; Sola voce	!	!LO:TX:b:t=V&colon; Solo voce	!	!LO:TX:b:t=V&colon; Solo voce	!	!	!	!	!
4r	.	4r	.	4r	.	4r	.	.	.	.	.
!LO:PB:g=original	!	!LO:PB:g=original	!	!LO:PB:g=original	!	!LO:PB:g=original	!	!	!	!	!
=25	=25	=25	=25	=25	=25	=25	=25	=25	=25	=25	=25
*	*	*	*	*^	*	*	*	*	*	*	*
*tremolo	*	*tremolo	*	*	*	*	*	*	*	*	*	*
!	!LO:DY:b:rj:Bi:t=p&colon;	!	!LO:DY:b:rj:Bi:t=p&colon;	!	!	!LO:DY:a:Bi:t=piano	!	!LO:DY:a:Bi:t=p&colon;	!	!	!	!
8G\L	p	8g\L	p	16d/LL	16B\LL	p	2g\	p	2G\	O	1ryy	1ryy
.	.	.	.	16d/	16B\	.	.	.	.	.	.	.
8G\	.	8g\	.	16d/	16B\	.	.	.	.	.	.	.
.	.	.	.	16d/	16B\	.	.	.	.	.	.	.
8G\	.	8g\	.	16d/	16B\	.	.	.	.	.	.	.
.	.	.	.	16d/	16B\	.	.	.	.	.	.	.
8G\J	.	8g\J	.	16d/	16B\	.	.	.	.	.	.	.
.	.	.	.	16d/JJ	16B\JJ	.	.	.	.	.	.	.
8G\L	.	8g\L	.	16d/LL	16B\LL	.	4b\	.	4B\	be-	.	.
.	.	.	.	16d/	16B\	.	.	.	.	.	.	.
8G\	.	8g\	.	16d/	16B\	.	.	.	.	.	.	.
.	.	.	.	16d/	16B\	.	.	.	.	.	.	.
8G\	.	8g\	.	16d/	16B\	.	4dd\	.	4d\	.	.	.
.	.	.	.	16d/	16B\	.	.	.	.	.	.	.
8G\J	.	8g\J	.	16d/	16B\	.	.	.	.	.	.	.
.	.	.	.	16d/JJ	16B\JJ	.	.	.	.	.	.	.
=26	=26	=26	=26	=26	=26	=26	=26	=26	=26	=26	=26	=26
8A\L	.	8a\L	.	16d/LL	16c\LL	.	8dd|\L	.	8d\L	-a-	1ryy	1ryy
.	.	.	.	16d/	16c\	.	.	.	.	.	.	.
8A\	.	8a\	.	16d/	16c\	.	(16ee\L	.	16e\L	.	.	.
.	.	.	.	16d/	16c\	.	16b\JJ)	.	16B\JJ	.	.	.
8A\	.	8a\	.	16d/	16c\	.	4cc\	.	4c\	-tam	.	.
.	.	.	.	16d/	16c\	.	.	.	.	.	.	.
8A\J	.	8a\J	.	16d/	16c\	.	.	.	.	.	.	.
.	.	.	.	16d/JJ	16c\JJ	.	.	.	.	.	.	.
*Xtremolo	*	*Xtremolo	*	*	*	*	*	*	*	*	*	*
8A\L	.	8a\L	.	16d/LL	16d\LL	.	2r	.	2r	.	.	.
.	.	.	.	16d/	16d\	.	.	.	.	.	.	.
8A\	.	8a\	.	16d/	16d\	.	.	.	.	.	.	.
.	.	.	.	16d/	16d\JJ	.	.	.	.	.	.	.
8G\	.	8g\	.	16d/	16B\LL	.	.	.	.	.	.	.
.	.	.	.	16d/	16B\	.	.	.	.	.	.	.
8G\J	.	8g\J	.	16d/	16B\	.	.	.	.	.	.	.
.	.	.	.	16d/JJ	16B\JJ	.	.	.	.	.	.	.
=27	=27	=27	=27	=27	=27	=27	=27	=27	=27	=27	=27	=27
*tremolo	*	*tremolo	*	*	*	*	*	*	*	*	*	*
8F#\L	.	8d\L	.	16d/LL	16A\LL	.	2aa\	.	2A\	Ma-	1ryy	1ryy
.	.	.	.	16d/	16A\	.	.	.	.	.	.	.
8F#\	.	8d\	.	16d/	16A\	.	.	.	.	.	.	.
.	.	.	.	16d/	16A\	.	.	.	.	.	.	.
8F#\	.	8d\	.	16d/	16A\	.	.	.	.	.	.	.
.	.	.	.	16d/	16A\	.	.	.	.	.	.	.
8F#\J	.	8d\J	.	16d/	16A\	.	.	.	.	.	.	.
.	.	.	.	16d/JJ	16A\JJ	.	.	.	.	.	.	.
8F#\L	.	8d\L	.	16d/LL	16A\LL	.	4.d/	.	8.D\L	.	.	.
.	.	.	.	16d/	16A\	.	.	.	.	.	.	.
8F#\	.	8d\	.	16d/	16A\	.	.	.	.	.	.	.
.	.	.	.	16d/	16A\	.	.	.	16F#\Jk	.	.	.
8F#\	.	8d\	.	16d/	16A\	.	.	.	8.A\L	.	.	.
.	.	.	.	16d/	16A\	.	.	.	.	.	.	.
8F#\J	.	8d\J	.	16d/	16A\	.	8cc\	.	.	.	.	.
.	.	.	.	16d/JJ	16A\JJ	.	.	.	16c\Jk	.	.	.
=28	=28	=28	=28	=28	=28	=28	=28	=28	=28	=28	=28	=28
.	.	.	.	.	.	.	8qqdd/	.	8qqd/	.	.	.
8G\L	.	8d\L	.	16d/LL	16B\LL	.	4cc\	.	4c\	.	1ryy	1ryy
.	.	.	.	16d/	16B\	.	.	.	.	.	.	.
8G\	.	8d\	.	16d/	16B\	.	.	.	.	.	.	.
.	.	.	.	16d/	16B\	.	.	.	.	.	.	.
8G\	.	8d\	.	16d/	16B\	.	4b\	.	4B,<\	-trem,	.	.
.	.	.	.	16d/	16B\	.	.	.	.	.	.	.
8G\J	.	8d\J	.	16d/	16B\	.	.	.	.	.	.	.
.	.	.	.	16d/JJ	16B\JJ	.	.	.	.	.	.	.
8G\L	.	8d\L	.	16d/LL	16B\LL	.	2ddd\	.	2d\	quam	.	.
.	.	.	.	16d/	16B\	.	.	.	.	.	.	.
8G\	.	8d\	.	16d/	16B\	.	.	.	.	.	.	.
.	.	.	.	16d/	16B\	.	.	.	.	.	.	.
8G\	.	8d\	.	16d/	16B\	.	.	.	.	.	.	.
.	.	.	.	16d/	16B\	.	.	.	.	.	.	.
8G\J	.	8d\J	.	16d/	16B\	.	.	.	.	.	.	.
.	.	.	.	16d/JJ	16B\JJ	.	.	.	.	.	.	.
=29	=29	=29	=29	=29	=29	=29	=29	=29	=29	=29	=29	=29
8F#\L	.	8d\L	.	16d/LL	16A\LL	.	4ccc\	.	4c\	De-	1ryy	1ryy
.	.	.	.	16d/	16A\	.	.	.	.	.	.	.
8F#\	.	8d\	.	16d/	16A\	.	.	.	.	.	.	.
.	.	.	.	16d/	16A\	.	.	.	.	.	.	.
8F#\	.	8d\	.	16d/	16A\	.	4aa\	.	4A\	-us	.	.
.	.	.	.	16d/	16A\	.	.	.	.	.	.	.
8F#\J	.	8d\J	.	16d/	16A\	.	.	.	.	.	.	.
.	.	.	.	16d/JJ	16A\JJ	.	.	.	.	.	.	.
8F#\L	.	8d\L	.	16d/LL	16A\LL	.	4ff#\	.	4F#\	e-	.	.
.	.	.	.	16d/	16A\	.	.	.	.	.	.	.
8F#\	.	8d\	.	16d/	16A\	.	.	.	.	.	.	.
.	.	.	.	16d/	16A\	.	.	.	.	.	.	.
8F#\	.	8d\	.	16d/	16A\	.	4cc\	.	4C\	-[[le]]-	.	.
.	.	.	.	16d/	16A\	.	.	.	.	.	.	.
8F#\J	.	8d\J	.	16d/	16A\	.	.	.	.	.	.	.
.	.	.	.	16d/JJ	16A\JJ	.	.	.	.	.	.	.
!	!	!	!	!	!	!	!	!	!LO:LB:g=original	!	!	!
=30	=30	=30	=30	=30	=30	=30	=30	=30	=30	=30	=30	=30
8G\L	.	8d\L	.	16d/LL	16B\LL	.	8b|\L	.	8BB\L	-le-	1ryy	1ryy
.	.	.	.	16d/	16B\	.	.	.	.	.	.	.
8G\	.	8d\	.	16d/	16B\	.	(16ee\L	.	16E\L	.	.	.
.	.	.	.	16d/	16B\	.	16dd\JJ)	.	16D\JJ	.	.	.
8G\	.	8d\	.	16d/	16B\	.	4dd\	.	4D\	-git	.	.
.	.	.	.	16d/	16B\	.	.	.	.	.	.	.
8G\J	.	8d\J	.	16d/	16B\	.	.	.	.	.	.	.
.	.	.	.	16d/JJ	16B\JJ	.	.	.	.	.	.	.
8G\L	.	8d\L	.	16d/LL	16B\LL	.	2ddd\	.	2d\	quam	.	.
.	.	.	.	16d/	16B\	.	.	.	.	.	.	.
8G\	.	8d\	.	16d/	16B\	.	.	.	.	.	.	.
.	.	.	.	16d/	16B\	.	.	.	.	.	.	.
8G\	.	8d\	.	16d/	16B\	.	.	.	.	.	.	.
.	.	.	.	16d/	16B\	.	.	.	.	.	.	.
8G\J	.	8d\J	.	16d/	16B\	.	.	.	.	.	.	.
.	.	.	.	16d/JJ	16B\JJ	.	.	.	.	.	.	.
=31	=31	=31	=31	=31	=31	=31	=31	=31	=31	=31	=31	=31
8F#\L	.	8d\L	.	16d/LL	16A\LL	.	4ccc\	.	4c\	De-	1ryy	1ryy
.	.	.	.	16d/	16A\	.	.	.	.	.	.	.
8F#\	.	8d\	.	16d/	16A\	.	.	.	.	.	.	.
.	.	.	.	16d/	16A\	.	.	.	.	.	.	.
8F#\	.	8d\	.	16d/	16A\	.	8aa\L	.	8A\L	.	.	.
.	.	.	.	16d/	16A\	.	.	.	.	.	.	.
8F#\J	.	8d\J	.	16d/	16A\	.	8ff#\J	.	8F#\J	.	.	.
.	.	.	.	16d/JJ	16A\JJ	.	.	.	.	.	.	.
8F#\L	.	8d\L	.	16d/LL	16A\LL	.	4dd\	.	4D\	-us	.	.
.	.	.	.	16d/	16A\	.	.	.	.	.	.	.
8F#\	.	8d\	.	16d/	16A\	.	.	.	.	.	.	.
.	.	.	.	16d/	16A\	.	.	.	.	.	.	.
8F#\	.	8d\	.	16d/	16A\	.	4ccc\	.	4c\	e-	.	.
.	.	.	.	16d/	16A\	.	.	.	.	.	.	.
8F#\J	.	8d\J	.	16d/	16A\	.	.	.	.	.	.	.
.	.	.	.	16d/JJ	16A\JJ	.	.	.	.	.	.	.
=32	=32	=32	=32	=32	=32	=32	=32	=32	=32	=32	=32	=32
.	.	.	.	.	.	.	8qqccc/	.	8qqc/	.	.	.
8G\L	.	8G/L	.	16d/LL	16B\LL	.	8bb\L	.	8B\L	-le-	1ryy	1ryy
.	.	.	.	16d/	16B\	.	.	.	.	.	.	.
8G\	.	8G/	.	16d/	16B\	.	16aa\L	.	16A\L	.	.	.
.	.	.	.	16d/	16B\	.	16gg\JJ	.	16G\JJ	.	.	.
8G\	.	8G/	.	16d/	16B\	.	4gg\	.	4G\	-git	.	.
.	.	.	.	16d/	16B\	.	.	.	.	.	.	.
8G\J	.	8G/J	.	16d/	16B\	.	.	.	.	.	.	.
.	.	.	.	16d/JJ	16B\JJ	.	.	.	.	.	.	.
8G\L	.	8G/L	.	16d/LL	16B\LL	.	2r	.	2r	.	.	.
.	.	.	.	16d/	16B\	.	.	.	.	.	.	.
8G\	.	8G/	.	16d/	16B\	.	.	.	.	.	.	.
.	.	.	.	16d/	16B\	.	.	.	.	.	.	.
8G\	.	8G/	.	16d/	16B\	.	.	.	.	.	.	.
.	.	.	.	16d/	16B\	.	.	.	.	.	.	.
8G\J	.	8G/J	.	16d/	16B\	.	.	.	.	.	.	.
.	.	.	.	16d/JJ	16B\JJ	.	.	.	.	.	.	.
*	*	*	*	*v	*v	*	*	*	*	*	*	*
!	!	!	!	!	!	!LO:LB:g=original	!	!	!	!	!
=33	=33	=33	=33	=33	=33	=33	=33	=33	=33	=33	=33
8c\L	.	8c\L	.	16e 16G/LL	.	2ee\	.	2.e\	qui	1ryy	1ryy
.	.	.	.	16e 16G/	.	.	.	.	.	.	.
8c\	.	8c\	.	16e 16G/	.	.	.	.	.	.	.
.	.	.	.	16e 16G/	.	.	.	.	.	.	.
8c\	.	8c\	.	16e 16G/	.	.	.	.	.	.	.
.	.	.	.	16e 16G/	.	.	.	.	.	.	.
8c\J	.	8c\J	.	16e 16G/	.	.	.	.	.	.	.
.	.	.	.	16e 16G/JJ	.	.	.	.	.	.	.
8c\L	.	8c\L	.	16e 16G/LL	.	4c/	.	.	.	.	.
.	.	.	.	16e 16G/	.	.	.	.	.	.	.
8c\	.	8c\	.	16e 16G/	.	.	.	.	.	.	.
.	.	.	.	16e 16G/	.	.	.	.	.	.	.
8c\	.	8c\	.	16e 16G/	.	4ee\	.	4e\	coe-	.	.
.	.	.	.	16e 16G/	.	.	.	.	.	.	.
8c\J	.	8c\J	.	16e 16G/	.	.	.	.	.	.	.
.	.	.	.	16e 16G/JJ	.	.	.	.	.	.	.
!LO:LB:g=original	!	!	!	!	!	!	!	!	!	!	!
=34	=34	=34	=34	=34	=34	=34	=34	=34	=34	=34	=34
8B\L	.	8G/L	.	16d 16G/LL	.	16dd\LL	.	16d\LL	.	1ryy	1ryy
.	.	.	.	16d 16G/	.	16ee\	.	16e\	.	.	.
8B\	.	8G/	.	16d 16G/	.	16dd\	.	16d\	.	.	.
.	.	.	.	16d 16G/	.	16cc\JJ	.	16c\JJ	.	.	.
8B\	.	8G/	.	16d 16G/	.	4b\	.	4B\	-lum	.	.
.	.	.	.	16d 16G/	.	.	.	.	.	.	.
8B\J	.	8G/J	.	16d 16G/	.	.	.	.	.	.	.
.	.	.	.	16d 16G/JJ	.	.	.	.	.	.	.
8B\L	.	8G/L	.	16d 16G/LL	.	4r	.	4r	.	.	.
.	.	.	.	16d 16G/	.	.	.	.	.	.	.
8B\	.	8G/	.	16d 16G/	.	.	.	.	.	.	.
.	.	.	.	16d 16G/	.	.	.	.	.	.	.
8B\	.	8G/	.	16d 16G/	.	8dd\	.	4d\	ter-	.	.
.	.	.	.	16d 16G/	.	.	.	.	.	.	.
8B\J	.	8G/J	.	16d 16G/	.	8ryy	.	.	.	.	.
.	.	.	.	16d 16G/JJ	.	.	.	.	.	.	.
*Xtremolo	*	*Xtremolo	*	*Xtremolo	*	*	*	*	*	*	*
!	!	!LO:LB:g=original	!	!LO:LB:g=original	!	!	!	!	!	!	!
=35	=35	=35	=35	=35	=35	=35	=35	=35	=35	=35	=35
*	*	*	*	*^	*	*	*	*	*	*	*
4A\	.	4d\	.	16d/LL	16c\LL	.	(8dd\L	.	8d\L	-ram-	1ryy	1ryy
.	.	.	.	16d/	16c\	.	.	.	.	.	.	.
.	.	.	.	16d/	16c\	.	8cc\)	.	8c\	.	.	.
.	.	.	.	16d/JJ	16c\JJ	.	.	.	.	.	.	.
4F#\	.	4d\	.	16d/LL	16c\LL	.	(8aa\	.	8A\	-q(ue)	.	.
.	.	.	.	16d/	16c\	.	.	.	.	.	.	.
.	.	.	.	16d/	16c\	.	8cc\J)	.	8c\J	.	.	.
.	.	.	.	16d/JJ	16c\JJ	.	.	.	.	.	.	.
4G\	.	4d\	.	16d/LL	16B\LL	.	(8cc\L	.	8B\L	re-	.	.
.	.	.	.	16d/	16B\	.	.	.	.	.	.	.
.	.	.	.	16d/	16B\	.	8b\)	.	8G\J	.	.	.
.	.	.	.	16d/JJ	16B\JJ	.	.	.	.	.	.	.
4GG/	.	4d\	.	16d/LL	16B\LL	.	(8gg\	.	8d\L	.	.	.
.	.	.	.	16d/	16B\	.	.	.	.	.	.	.
.	.	.	.	16d/	16B\	.	8b\J)	.	8B\J	.	.	.
.	.	.	.	16d/JJ	16B\JJ	.	.	.	.	.	.	.
*	*	*	*	*v	*v	*	*	*	*	*	*	*
=36	=36	=36	=36	=36	=36	=36	=36	=36	=36	=36	=36
4D\	.	4A/	.	4g/	.	4b\	.	4B\	.	1ryy	1ryy
!LO:TX:t=P:problem:mixed beam	!	!	!	!	!	!	!	!	!	!	!
8DD/L	.	8A/L	.	8f#/L	.	8a\L	.	4A\	-git	.	.
8D\J	.	8A/J	.	8f#/J	.	8dd\J	.	.	.	.	.
!	!LO:DY:b:Bi:t=for	!	!	!	!LO:DY:b:Bi:t=for	!	!LO:DY:b:Bi:t=for.	!	!	!	!
8D\L	f	8A/L	.	8f#/L	f	8dd\L	f	2r	.	.	.
8D\J	.	8A/J	.	8f#/J	.	8dd\J	.	.	.	.	.
!	!	!	!	!LO:N:vis=8.	!	!	!	!	!	!	!
4E\	.	4A/	.	8g/L	.	8cc#X\L	.	.	.	.	.
.	.	.	.	(16f#/L	.	16b\L	.	.	.	.	.
.	.	.	.	16g/JJ)	.	16cc#\JJ	.	.	.	.	.
!	!	!	!	!	!	!	!	!LO:LB:g=original	!	!	!
=37	=37	=37	=37	=37	=37	=37	=37	=37	=37	=37	=37
*tremolo	*	*tremolo	*	*tremolo	*	*tremolo	*	*	*	*	*
!	!LO:DY:b:rj:Bi:t=p&colon;	!	!	!	!LO:DY:b:Bi:t=p&colon;	!	!LO:DY:b:Bi:t=p&colon;	!	!	!	!
8F#\L	p	8f#\L	.	8a\L	p	8dd\L	p	4D\	ac	1ryy	1ryy
8F#\	.	8f#\	.	8a\	.	8dd\	.	.	.	.	.
8F#\	.	8f#\	.	8a\	.	8dd\	.	8.d\L	sy-	.	.
8F#\J	.	8f#\J	.	8a\J	.	8dd\J	.	.	.	.	.
.	.	.	.	.	.	.	.	16d\Jk	-de-	.	.
8F#\L	.	8f#\L	.	8a\L	.	8dd\L	.	4d\	-ra	.	.
8F#\	.	8f#\	.	8a\	.	8dd\	.	.	.	.	.
8F#\	.	8f#\	.	8a\	.	8dd\	.	4cn\	gu-	.	.
8F#\J	.	8f#\J	.	8a\J	.	8dd\J	.	.	.	.	.
*	*	*	*	*Xtremolo	*	*	*	*	*	*	*
=38	=38	=38	=38	=38	=38	=38	=38	=38	=38	=38	=38
8G\L	.	8g\L	.	(8a#X\L	.	8dd\L	.	(4A#X\	-ber-	1ryy	1ryy
8G\	.	8g\	.	8b\)	.	8dd\	.	.	.	.	.
8G\	.	8g\	.	8b'\	.	8dd\	.	4B\)	-nat.	.	.
8G\J	.	8g\J	.	8b'\J	.	8dd\J	.	.	.	.	.
8G\L	.	8g\L	.	8b\L	.	8dd\L	.	2r	.	.	.
8G\	.	8g\	.	8b\	.	8dd\	.	.	.	.	.
8G\	.	8g\	.	8b\	.	8dd\	.	.	.	.	.
8G\J	.	8g\J	.	8b\J	.	8dd\J	.	.	.	.	.
=39	=39	=39	=39	=39	=39	=39	=39	=39	=39	=39	=39
*	*	*	*	*tremolo	*	*	*	*	*	*	*
8G\L	.	8g\L	.	8b\L	.	8ee\L	.	4E\	ac	1ryy	1ryy
8G\	.	8g\	.	8b\	.	8ee\	.	.	.	.	.
8G\	.	8g\	.	8b\	.	8ee\	.	8.e\L	sy-	.	.
8G\J	.	8g\J	.	8b\J	.	8ee\J	.	.	.	.	.
.	.	.	.	.	.	.	.	16e\Jk	-de-	.	.
*Xtremolo	*	*Xtremolo	*	*	*	*	*	*	*	*	*
8G\L	.	8g\L	.	8b\L	.	8ee\L	.	4e\	-ra	.	.
8G\	.	8g\	.	8b\	.	8ee\	.	.	.	.	.
8G#X\	.	8g#X\	.	8b\	.	8ee\	.	4d\	gu-	.	.
8G#\J	.	8g#\J	.	8b\J	.	8ee\J	.	.	.	.	.
*	*	*	*	*	*	*Xtremolo	*	*	*	*	*
!	!	!	!	!	!	!LO:LB:g=original	!	!	!	!	!
=40	=40	=40	=40	=40	=40	=40	=40	=40	=40	=40	=40
8G#X\L	.	8e\L	.	8e/L	.	8dd\L	.	4d\	-ber-	1ryy	1ryy
8G#\	.	8e\	.	8e/	.	8dd\	.	.	.	.	.
8A\	.	8a\	.	8e/	.	8cc#X\	.	4c#X\	-nat	.	.
8A\J	.	8a\J	.	8e/J	.	8cc#\J	.	.	.	.	.
*	*	*	*	*Xtremolo	*	*	*	*	*	*	*
!	!LO:DY:b:rj:Bi:t=for	!	!	!	!LO:DY:b:Bi:t=for	!	!LO:DY:b:Bi:t=for	!LO:TX:b:t=V S&colon;	!	!	!
8A\L	f	8a\L	.	8e/L	f	8aa\L	f	2r	.	.	.
8A\	.	8a\	.	8e/	.	8cc#X\J	.	.	.	.	.
!	!	!	!	!	!	!LO:MOR:acc=none	!	!	!	!	!
8Gn\	.	8e\	.	8g/	.	8.cc#M\L	.	.	.	.	.
8G\J	.	8e\J	.	8g/J	.	.	.	.	.	.	.
.	.	.	.	.	.	32b\LL	.	.	.	.	.
.	.	.	.	.	.	32cc#\JJJ	.	.	.	.	.
!LO:LB:g=original	!	!	!	!	!	!	!	!LO:PB:g=original	!	!	!
=41	=41	=41	=41	=41	=41	=41	=41	=41	=41	=41	=41
*tremolo	*	*tremolo	*	*	*	*	*	*	*	*	*
!	!	!	!	!LO:TX:t=P:problem:mixed beam	!LO:DY:b:Bi:t=p&colon;	!	!LO:DY:b:Bi:t=p&colon;	!	!	!	!
8F#\L	.	8f#\L	.	8f#/L	p	8dd\L	p	4D\	ac	1ryy	1ryy
8F#\	.	8f#\	.	8dd\	.	8aa\	.	.	.	.	.
8F#\	.	8f#\	.	8dd\	.	8aa\	.	8.d\L	sy-	.	.
8F#\J	.	8f#\J	.	8dd\J	.	8aa\J	.	.	.	.	.
.	.	.	.	.	.	.	.	16d\Jk	-de-	.	.
*	*	*	*	*tremolo	*	*tremolo	*	*	*	*	*
8F#\L	.	8f#\L	.	8dd\L	.	8aa\L	.	4d\	-ra	.	.
8F#\	.	8f#\	.	8dd\	.	8aa\	.	.	.	.	.
8F#\	.	8f#\	.	8dd\	.	8aa\	.	4cn\	gu-	.	.
8F#\J	.	8f#\J	.	8dd\J	.	8aa\J	.	.	.	.	.
!	!	!	!	!LO:LB:g=original	!	!	!	!	!	!	!
=42	=42	=42	=42	=42	=42	=42	=42	=42	=42	=42	=42
8G\L	.	8g\L	.	8dd\L	.	8bb\L	.	16B\LL	-ber-	1ryy	1ryy
.	.	.	.	.	.	.	.	16G\	.	.	.
8G\	.	8g\	.	8dd\	.	8bb\	.	16D\	.	.	.
.	.	.	.	.	.	.	.	16BB\JJ	.	.	.
8G\	.	8g\	.	8dd\	.	8bb\	.	4GG/	-nat	.	.
8G\J	.	8g\J	.	8dd\J	.	8bb\J	.	.	.	.	.
*	*	*	*	*Xtremolo	*	*	*	*	*	*	*
8G\L	.	8g\L	.	8dd\L	.	8bb\L	.	8r	.	.	.
!	!	!	!	!	!	!	!	!LO:N:vis=16	!	!	!
8G\	.	8g\	.	8dd\	.	8bb\	.	8B\L	gu-	.	.
!	!	!	!	!	!	!	!	!LO:N:vis=16	!	!	!
8G\	.	8g\	.	8dd\	.	8bb\	.	8c#X\	.	.	.
!	!	!	!	!	!	!	!	!LO:N:vis=16	!	!	!
!	!	!	!	!	!	!	!	!LO:SIC:v:s=8d#\J	!	!	!
8G\J	.	8g\J	.	8dd#X\J	.	8bb\J	.	8d\J	.	.	.
!	!	!LO:LB:g=original	!	!	!	!	!	!	!	!	!
=43	=43	=43	=43	=43	=43	=43	=43	=43	=43	=43	=43
*	*	*	*	*tremolo	*	*	*	*	*	*	*
8C#X/L	.	8c#X\L	.	8ee\L	.	8bb\L	.	16e\LL	-ber-	1ryy	1ryy
.	.	.	.	.	.	.	.	16d\	.	.	.
8C#X/	.	8c#X\	.	8ee\	.	8bb\	.	16e\	.	.	.
.	.	.	.	.	.	.	.	16f#\JJ	.	.	.
8C#X/	.	8c#X\	.	8ee\	.	8bb\	.	4.e\	.	.	.
8C#X/J	.	8c#X\J	.	8ee\J	.	8bb\J	.	.	.	.	.
8C#/L	.	8c#\L	.	8ee\L	.	8bb\L	.	.	.	.	.
8C#/	.	8c#\	.	8ee\	.	8bb\	.	8d\L	.	.	.
8C#/	.	8c#\	.	8ee\	.	8bb\	.	8c#X\	.	.	.
8C#/J	.	8c#\J	.	8ee\J	.	8bb\J	.	8B\J	.	.	.
=44	=44	=44	=44	=44	=44	=44	=44	=44	=44	=44	=44
8F#\L	.	8f#\L	.	8ee\L	.	8aa\L	.	16A\LL	.	1ryy	1ryy
.	.	.	.	.	.	.	.	16F#\	.	.	.
8F#\	.	8f#\	.	8ee\	.	8aa\	.	16D\	.	.	.
.	.	.	.	.	.	.	.	16AA\JJ	.	.	.
8F#\	.	8f#\	.	8ee\	.	8aa\	.	4FF#/	-nat	.	.
8F#\J	.	8f#\J	.	8ee\J	.	8aa\J	.	.	.	.	.
8F#\L	.	8f#\L	.	8ee\L	.	8aa\L	.	8r	.	.	.
*	*	*	*	*	*	*	*	*	*ij	*	*
8F#\	.	8f#\	.	8ee\	.	8aa\	.	8A\L	gu-	.	.
8F#\	.	8f#\	.	8ee\	.	8aa\	.	8B\	.	.	.
8F#\J	.	8f#\J	.	8ee\J	.	8aa\J	.	8c#X\J	.	.	.
=45	=45	=45	=45	=45	=45	=45	=45	=45	=45	=45	=45
8BB/L	.	8B/L	.	8dd\L	.	8aa\L	.	16d\LL	-ber-	1ryy	1ryy
.	.	.	.	.	.	.	.	16c#X\	.	.	.
8BB/	.	8B/	.	8dd\	.	8aa\	.	16d\	.	.	.
.	.	.	.	.	.	.	.	16e\JJ	.	.	.
8BB/	.	8B/	.	8dd\	.	8aa\	.	4.d\	.	.	.
8BB/J	.	8B/J	.	8dd\J	.	8aa\J	.	.	.	.	.
8BB/L	.	8B/L	.	8dd\L	.	8aa\L	.	.	.	.	.
8BB/	.	8B/	.	8dd\	.	8aa\	.	8c#X\L	.	.	.
8BB/	.	8B/	.	8dd\	.	8aa\	.	8B\	.	.	.
8BB/J	.	8B/J	.	8dd\J	.	8aa\J	.	8A\J	.	.	.
=46	=46	=46	=46	=46	=46	=46	=46	=46	=46	=46	=46
8E\L	.	8e\L	.	8dd\L	.	8gg\L	.	16G\LL	.	1ryy	1ryy
.	.	.	.	.	.	.	.	16E\	.	.	.
8E\	.	8e\	.	8dd\	.	8gg\	.	16BB\	.	.	.
.	.	.	.	.	.	.	.	16GG\JJ	.	.	.
8E\	.	8e\	.	8dd\	.	8gg\	.	4EE/	-nat	.	.
8E\J	.	8e\J	.	8dd\J	.	8gg\J	.	.	.	.	.
!	!	!	!	!	!	!	!	!LO:LB:g=original	!	!	!
8E\L	.	8e\L	.	8dd\L	.	8gg\L	.	8r	.	.	.
8E\	.	8e\	.	8dd\	.	8gg\	.	8G\L	gu-	.	.
8E\	.	8e\	.	8dd\	.	8gg\	.	8A\	.	.	.
8E\J	.	8e\J	.	8dd\J	.	8gg\J	.	8B\J	.	.	.
=47	=47	=47	=47	=47	=47	=47	=47	=47	=47	=47	=47
8AA/L	.	8e\L	.	8cc#X\L	.	8gg\L	.	16c#X\LL	-ber-	1ryy	1ryy
.	.	.	.	.	.	.	.	16B\	.	.	.
8AA/	.	8e\	.	8cc#X\	.	8gg\	.	16c#\	.	.	.
.	.	.	.	.	.	.	.	16d\JJ	.	.	.
8AA/	.	8e\	.	8cc#X\	.	8gg\	.	4.e\	.	.	.
8AA/J	.	8e\J	.	8cc#X\J	.	8gg\J	.	.	.	.	.
8AA/L	.	8e\L	.	8cc#\L	.	8gg\L	.	.	.	.	.
8AA/	.	8e\	.	8cc#\	.	8gg\	.	8c#X\L	.	.	.
8AA/	.	8e\	.	8cc#\	.	8gg\	.	8A\	.	.	.
8AA/J	.	8e\J	.	8cc#\J	.	8gg\J	.	8G\J	.	.	.
*Xtremolo	*	*Xtremolo	*	*Xtremolo	*	*Xtremolo	*	*	*	*	*
!	!	!	!	!	!	!LO:LB:g=original	!	!	!	!	!
=48	=48	=48	=48	=48	=48	=48	=48	=48	=48	=48	=48
8D\L	.	8d\L	.	8a/L	.	8ff#\L	.	4F#\	-nat	1ryy	1ryy
*	*	*	*	*	*	*	*	*	*Xij	*	*
8F#\	.	8f#\	.	8f#/	.	8dd\	.	.	.	.	.
8F#\	.	8f#\	.	8f#/	.	8dd\	.	4.d\	Sy-	.	.
8F#\J	.	8f#\J	.	8f#/J	.	8dd\J	.	.	.	.	.
*tremolo	*	*tremolo	*	*	*	*	*	*	*	*	*
8F#\L	.	8f#\L	.	8f#/L	.	8dd\L	.	.	.	.	.
8F#\	.	8f#\	.	8f#/	.	8dd\	.	8cn\L	.	.	.
8F#\	.	8f#\	.	8a/	.	8cc#X\	.	8B\	.	.	.
8F#\J	.	8f#\J	.	8a/J	.	8cc#\J	.	8A#X\J	-de-	.	.
=49	=49	=49	=49	=49	=49	=49	=49	=49	=49	=49	=49
*	*	*	*	*tremolo	*	*	*	*	*	*	*
8G\L	.	8g\L	.	8d/L	.	8b\L	.	4B\	-ra	1ryy	1ryy
8G\	.	8g\	.	8d/	.	8b\	.	.	.	.	.
8G\	.	8g\	.	8d/	.	8b\	.	4B\	gu-	.	.
8G\J	.	8g\J	.	8d/J	.	8b\J	.	.	.	.	.
*Xtremolo	*	*Xtremolo	*	*Xtremolo	*	*	*	*	*	*	*
4G\	.	4g\	.	4d/	.	4b\	.	8B\L	-ber-	.	.
.	.	.	.	.	.	.	.	16c#X\L	.	.	.
.	.	.	.	.	.	.	.	16d\JJ	.	.	.
.	.	.	.	.	.	.	.	8qqc#/	.	.	.
4r	.	4r	.	4r	.	4r	.	8B\L	.	.	.
.	.	.	.	.	.	.	.	16A\L	.	.	.
.	.	.	.	.	.	.	.	16G\JJ	.	.	.
!LO:LB:g=original	!	!	!	!	!	!	!	!	!	!	!
=50	=50	=50	=50	=50	=50	=50	=50	=50	=50	=50	=50
*tremolo	*	*tremolo	*	*tremolo	*	*tremolo	*	*	*	*	*
!	!LO:DY:b:Bi:t=for	!	!	!	!LO:DY:b:Bi:t=for	!	!	!	!	!	!
8A\L	f	8a\L	.	16f#/LL	f	16dd\LL	.	8A|\L	.	1ryy	1ryy
.	.	.	.	16f#/	.	16dd\	.	.	.	.	.
8A\	.	8a\	.	16f#/	.	16dd\	.	(16G\L	.	.	.
.	.	.	.	16f#/	.	16dd\	.	16F#\	.	.	.
8A\	.	8a\	.	16f#/	.	16dd\	.	16E\	.	.	.
.	.	.	.	16f#/	.	16dd\	.	16D\JJ)	.	.	.
8A\J	.	8a\J	.	16f#/	.	16dd\	.	2EM\	.	.	.
.	.	.	.	16f#/JJ	.	16dd\JJ	.	.	.	.	.
8AA/L	.	8A/L	.	16e/LL	.	16cc#X\LL	.	.	.	.	.
.	.	.	.	16e/	.	16cc#X\	.	.	.	.	.
8AA/	.	8A/	.	16e/	.	16cc#X\	.	.	.	.	.
.	.	.	.	16e/	.	16cc#X\	.	.	.	.	.
8AA/	.	8A/	.	16e/	.	16cc#X\	.	.	.	.	.
.	.	.	.	16e/	.	16cc#X\	.	.	.	.	.
8AA/J	.	8A/J	.	16e/	.	16cc#X\	.	8ryy	.	.	.
.	.	.	.	16e/JJ	.	16cc#X\JJ	.	.	.	.	.
*Xtremolo	*	*Xtremolo	*	*Xtremolo	*	*Xtremolo	*	*	*	*	*
!	!	!	!	!LO:LB:g=original	!	!	!	!	!	!	!
=51	=51	=51	=51	=51	=51	=51	=51	=51	=51	=51	=51
!LO:TX:b:t=mezo	!	!	!	!	!	!	!	!	!	!	!
8D|\L	.	8d|\L	.	16d/LL	.	4dd 4b\	.	4D\	-nat	1ryy	1ryy
.	.	.	.	16A/	.	.	.	.	.	.	.
8AA|\	.	8A|\	.	16A/	.	.	.	.	.	.	.
.	.	.	.	16A/JJ	.	.	.	.	.	.	.
8D|\	.	8d|\	.	16A/LL	.	4r	.	4r	.	.	.
.	.	.	.	16A/	.	.	.	.	.	.	.
8AA|\J	.	8A|\J	.	16A/	.	.	.	.	.	.	.
.	.	.	.	16A/JJ	.	.	.	.	.	.	.
*	*	*	*	*tremolo	*	*	*	*	*	*	*
8D|\L	.	8d|\L	.	16A/LL	.	4rg	.	4r	.	.	.
.	.	.	.	16A/	.	.	.	.	.	.	.
8AA|\	.	8A|\	.	16A/	.	.	.	.	.	.	.
.	.	.	.	16A/	.	.	.	.	.	.	.
8C#X|\	.	8c#X|\	.	16A/	.	8.ee\L	.	8.E\L	qui	.	.
.	.	.	.	16A/	.	.	.	.	.	.	.
8AA|\J	.	8A|\J	.	16A/	.	.	.	.	.	.	.
.	.	.	.	16A/JJ	.	16gg\Jk	.	16G\Jk	.	.	.
!	!	!LO:LB:g=original	!	!	!	!	!	!LO:LB:g=original	!	!	!
=52	=52	=52	=52	=52	=52	=52	=52	=52	=52	=52	=52
8D\L	.	8d\L	.	16A/LL	.	4ff#\	.	4F#\	coe-	1ryy	1ryy
.	.	.	.	16A/	.	.	.	.	.	.	.
8AA\	.	8A\	.	16A/	.	.	.	.	.	.	.
.	.	.	.	16A/	.	.	.	.	.	.	.
8D\	.	8d\	.	16A/	.	4aa\	.	4A\	-lum,	.	.
.	.	.	.	16A/	.	.	.	.	.	.	.
8AA\J	.	8A\J	.	16A/	.	.	.	.	.	.	.
.	.	.	.	16A/JJ	.	.	.	.	.	.	.
8E\L	.	8e\L	.	16A/LL	.	4r	.	4r	.	.	.
.	.	.	.	16A/	.	.	.	.	.	.	.
8AA\	.	8A\	.	16A/	.	.	.	.	.	.	.
.	.	.	.	16A/	.	.	.	.	.	.	.
8E\	.	8e\	.	16A/	.	8.ee\L	.	8.E\L	ter-	.	.
.	.	.	.	16A/	.	.	.	.	.	.	.
8AA\J	.	8A\J	.	16A/	.	.	.	.	.	.	.
.	.	.	.	16A/JJ	.	16cc#X\Jk	.	16C#X\Jk	.	.	.
=53	=53	=53	=53	=53	=53	=53	=53	=53	=53	=53	=53
8F#\L	.	8f#\L	.	16A/LL	.	4dd\	.	4D\	-ram-	1ryy	1ryy
.	.	.	.	16A/	.	.	.	.	.	.	.
8AA\	.	8A\	.	16A/	.	.	.	.	.	.	.
.	.	.	.	16A/	.	.	.	.	.	.	.
8F#\	.	8f#\	.	16A/	.	4a\	.	4AA\	-q(ue)	.	.
.	.	.	.	16A/	.	.	.	.	.	.	.
8AA\J	.	8A\J	.	16A/	.	.	.	.	.	.	.
.	.	.	.	16A/JJ	.	.	.	.	.	.	.
8C#X\L	.	8c#X\L	.	16A/LL	.	4r	.	4r	.	.	.
.	.	.	.	16A/	.	.	.	.	.	.	.
8AA\	.	8A\	.	16A/	.	.	.	.	.	.	.
.	.	.	.	16A/	.	.	.	.	.	.	.
8C#\	.	8c#\	.	16A/	.	8.ee\L	.	8.E\L	qui	.	.
.	.	.	.	16A/	.	.	.	.	.	.	.
8AA\J	.	8A\J	.	16A/	.	.	.	.	.	.	.
.	.	.	.	16A/JJ	.	16gg\Jk	.	16G\Jk	.	.	.
=54	=54	=54	=54	=54	=54	=54	=54	=54	=54	=54	=54
8D\L	.	8d\L	.	16A/LL	.	4ff#\	.	4F#\	coe-	1ryy	1ryy
.	.	.	.	16A/	.	.	.	.	.	.	.
8AA\	.	8A\	.	16A/	.	.	.	.	.	.	.
.	.	.	.	16A/	.	.	.	.	.	.	.
8D\	.	8d\	.	16A/	.	4aa\	.	4A\	-lum,	.	.
.	.	.	.	16A/	.	.	.	.	.	.	.
8AA\J	.	8A\J	.	16A/	.	.	.	.	.	.	.
.	.	.	.	16A/JJ	.	.	.	.	.	.	.
8E\L	.	8e\L	.	16A/LL	.	8r	.	8r	.	.	.
.	.	.	.	16A/	.	.	.	.	.	.	.
8AA\	.	8A\	.	16A/	.	8gg\L	.	8G\L	ter-	.	.
.	.	.	.	16A/	.	.	.	.	.	.	.
8E\	.	8e\	.	16A/	.	8ee\	.	8E\	.	.	.
.	.	.	.	16A/	.	.	.	.	.	.	.
8AA\J	.	8A\J	.	16A/	.	8cc#X\J	.	8C#X\J	.	.	.
.	.	.	.	16A/JJ	.	.	.	.	.	.	.
=55	=55	=55	=55	=55	=55	=55	=55	=55	=55	=55	=55
8F#\L	.	8f#\L	.	16A/LL	.	4dd\	.	4D\	-ram-	1ryy	1ryy
.	.	.	.	16A/	.	.	.	.	.	.	.
8AA\	.	8A\	.	16A/	.	.	.	.	.	.	.
.	.	.	.	16A/	.	.	.	.	.	.	.
8F#\	.	8f#\	.	16A/	.	4a\	.	4AA\	-q(ue)	.	.
.	.	.	.	16A/	.	.	.	.	.	.	.
8AA\J	.	8A\J	.	16A/	.	.	.	.	.	.	.
.	.	.	.	16A/JJ	.	.	.	.	.	.	.
8C#X\L	.	8c#X\L	.	16A/LL	.	4r	.	4r	.	.	.
.	.	.	.	16A/	.	.	.	.	.	.	.
8AA\	.	8A\	.	16A/	.	.	.	.	.	.	.
.	.	.	.	16A/	.	.	.	.	.	.	.
!	!	!	!	!	!	!LO:LB:g=original	!	!	!	!	!
8C#\	.	8c#\	.	16A/	.	8.ee\L	.	8.E\L	qui	.	.
.	.	.	.	16A/	.	.	.	.	.	.	.
8AA\J	.	8A\J	.	16A/	.	.	.	.	.	.	.
.	.	.	.	16A/JJ	.	16gg\Jk	.	16G\Jk	.	.	.
*	*	*	*	*Xtremolo	*	*	*	*	*	*	*
=56	=56	=56	=56	=56	=56	=56	=56	=56	=56	=56	=56
!	!LO:DY:b:Bi:t=p&colon;	!	!	!	!	!	!	!	!	!	!
8D\L	p	8d\L	.	8f#/L	.	4ff#\	.	4F#\	coe-	1ryy	1ryy
8F#\	.	8f#\	.	8a/	.	.	.	.	.	.	.
8F#\	.	8f#\	.	8a/	.	4.ddd\	.	4.d\	.	.	.
8F#\J	.	8f#\J	.	8a/J	.	.	.	.	.	.	.
*tremolo	*	*tremolo	*	*tremolo	*	*	*	*	*	*	*
!LO:LB:g=original	!	!	!	!	!	!	!	!	!	!	!
8F#\L	.	8f#\L	.	8a/L	.	.	.	.	.	.	.
8F#\	.	8f#\	.	8a/	.	8ccc|\L	.	8cn\L	.	.	.
8F#\	.	8f#\	.	8a/	.	8bb|\	.	8B\	.	.	.
8F#\J	.	8f#\J	.	8a/J	.	8aa#X|\J	.	8A#X\J	.	.	.
*	*	*	*	*Xtremolo	*	*	*	*	*	*	*
=57	=57	=57	=57	=57	=57	=57	=57	=57	=57	=57	=57
2G\	.	8g\L	.	4d/	.	4bb\	.	4B|\	-lum	1ryy	1ryy
.	.	8g\	.	.	.	.	.	.	.	.	.
.	.	8g\	.	4d/	.	4r	.	4B|\	ter-	.	.
.	.	8g\J	.	.	.	.	.	.	.	.	.
*	*	*Xtremolo	*	*	*	*	*	*	*	*	*
2r	.	4g\	.	2r	.	2r	.	4c#X|\	-ram-	.	.
.	.	4ryy	.	.	.	.	.	4d|\	-q(ue)	.	.
=58	=58	=58	=58	=58	=58	=58	=58	=58	=58	=58	=58
*	*	*tremolo	*	*tremolo	*	*tremolo	*	*	*	*	*
!	!LO:DY:b:Bi:t=for	!	!	!	!LO:DY:b:Bi:t=for	!	!LO:DY:b:Bi:t=for	!	!	!	!
8A\L	f	8a\L	.	16f#/LL	f	16dd\LL	f	2AA/	gu-	1ryy	1ryy
.	.	.	.	16f#/	.	16dd\	.	.	.	.	.
8A\	.	8a\	.	16f#/	.	16dd\	.	.	.	.	.
.	.	.	.	16f#/	.	16dd\	.	.	.	.	.
8A\	.	8a\	.	16f#/	.	16dd\	.	.	.	.	.
.	.	.	.	16f#/	.	16dd\	.	.	.	.	.
8A\J	.	8a\J	.	16f#/	.	16dd\	.	.	.	.	.
.	.	.	.	16f#/JJ	.	16dd\JJ	.	.	.	.	.
*	*	*	*	*	*	*Xtremolo	*	*	*	*	*
8AA/L	.	8A/L	.	16e/LL	.	16dd\LL	.	2EM\	-ber-	.	.
.	.	.	.	16e/	.	16dd\	.	.	.	.	.
8AA/	.	8A/	.	16e/	.	16dd\	.	.	.	.	.
.	.	.	.	16e/	.	16dd\JJ	.	.	.	.	.
8AA/	.	8A/	.	16e/	.	16cc#X\LL	.	.	.	.	.
.	.	.	.	16e/	.	16cc#\	.	.	.	.	.
8AA/J	.	8A/J	.	16e/	.	16cc#\	.	.	.	.	.
.	.	.	.	16e/JJ	.	16cc#\JJ	.	.	.	.	.
*	*	*Xtremolo	*	*Xtremolo	*	*	*	*	*	*	*
!	!	!	!	!	!	!	!	!LO:LB:g=original	!	!	!
=59	=59	=59	=59	=59	=59	=59	=59	=59	=59	=59	=59
2BB/	.	4B/	.	4f#/	.	4dd\	.	8BB/L	.	1ryy	1ryy
.	.	.	.	.	.	.	.	16C#X/L	.	.	.
.	.	.	.	.	.	.	.	16D/JJ	.	.	.
.	.	4r	.	4r/	.	4r	.	16E\LL	.	.	.
.	.	.	.	.	.	.	.	16F#\	.	.	.
.	.	.	.	.	.	.	.	16G\	.	.	.
.	.	.	.	.	.	.	.	16A\JJ	.	.	.
2r	.	2r	.	2r	.	2r	.	4B|\	.	.	.
.	.	.	.	.	.	.	.	8c#X|\	-nat	.	.
.	.	.	.	.	.	.	.	8d\	et	.	.
!	!	!LO:LB:g=original	!	!LO:LB:g=original	!	!	!	!	!	!	!
=60	=60	=60	=60	=60	=60	=60	=60	=60	=60	=60	=60
*	*	*tremolo	*	*tremolo	*	*tremolo	*	*	*	*	*
8A\L	.	8a\L	.	16f#/LL	.	16dd\LL	.	2AA/	re-	1ryy	1ryy
.	.	.	.	16f#/	.	16dd\	.	.	.	.	.
8A\	.	8a\	.	16f#/	.	16dd\	.	.	.	.	.
.	.	.	.	16f#/	.	16dd\	.	.	.	.	.
8A\	.	8a\	.	16f#/	.	16dd\	.	.	.	.	.
.	.	.	.	16f#/	.	16dd\	.	.	.	.	.
8A\J	.	8a\J	.	16f#/	.	16dd\	.	.	.	.	.
.	.	.	.	16f#/JJ	.	16dd\JJ	.	.	.	.	.
*	*	*	*	*	*	*Xtremolo	*	*	*	*	*
8AA/L	.	8A/L	.	16e/LL	.	16dd\LL	.	2EM\	.	.	.
.	.	.	.	16e/	.	16dd\	.	.	.	.	.
8AA/	.	8A/	.	16e/	.	16dd\	.	.	.	.	.
.	.	.	.	16e/	.	16dd\JJ	.	.	.	.	.
8AA/	.	8A/	.	16e/	.	16cc#X\LL	.	.	.	.	.
.	.	.	.	16e/	.	16cc#\	.	.	.	.	.
8AA/J	.	8A/J	.	16e/	.	16cc#\	.	.	.	.	.
.	.	.	.	16e/JJ	.	16cc#\JJ	.	.	.	.	.
*Xtremolo	*	*Xtremolo	*	*	*	*	*	*	*	*	*
=61	=61	=61	=61	=61	=61	=61	=61	=61	=61	=61	=61
!	!LO:DY:b:rj:Bi:t=f&colon;	!	!	!	!	!	!	!	!	!	!
8D\L	f	8d\L	.	16d 16A/LL	.	8dd\L	.	2D\	-git	1ryy	1ryy
.	.	.	.	16d 16A/	.	.	.	.	.	.	.
8F#\	.	8f#\	.	16d 16A/	.	8ddd\J	.	.	.	.	.
.	.	.	.	16d 16A/	.	.	.	.	.	.	.
8F#\	.	8f#\	.	16d 16A/	.	4.ddd\	.	.	.	.	.
.	.	.	.	16d 16A/	.	.	.	.	.	.	.
8F#\J	.	8f#\J	.	16d 16A/	.	.	.	.	.	.	.
.	.	.	.	16d 16A/JJ	.	.	.	.	.	.	.
*tremolo	*	*tremolo	*	*	*	*	*	*	*	*	*
8F#\L	.	8f#\L	.	16d 16A/LL	.	.	.	2r	.	.	.
.	.	.	.	16d 16A/	.	.	.	.	.	.	.
8F#\	.	8f#\	.	16d 16A/	.	8cccn|\L	.	.	.	.	.
.	.	.	.	16d 16A/	.	.	.	.	.	.	.
8F#\	.	8f#\	.	16d 16A/	.	8bb|\	.	.	.	.	.
.	.	.	.	16d 16A/	.	.	.	.	.	.	.
8F#\J	.	8f#\J	.	16d 16A/	.	8aa#X|\J	.	.	.	.	.
.	.	.	.	16d 16A/JJ	.	.	.	.	.	.	.
!	!	!	!	!	!	!LO:LB:g=original	!	!	!	!	!
=62	=62	=62	=62	=62	=62	=62	=62	=62	=62	=62	=62
8G\L	.	8g\L	.	16d 16B/LL	.	(8aa#X\L	.	00r	.	1ryy	1ryy
.	.	.	.	16d 16B/	.	.	.	.	.	.	.
8G\	.	8g\	.	16d 16B/	.	8bb\J)	.	.	.	.	.
.	.	.	.	16d 16B/	.	.	.	.	.	.	.
8G\	.	8g\	.	16d 16B/	.	4bb\	.	.	.	.	.
.	.	.	.	16d 16B/	.	.	.	.	.	.	.
8G\J	.	8g\J	.	16d 16B/	.	.	.	.	.	.	.
.	.	.	.	16d 16B/JJ	.	.	.	.	.	.	.
8G\L	.	8g\L	.	16d 16B/LL	.	8bb'\L	.	.	.	.	.
.	.	.	.	16d 16B/	.	.	.	.	.	.	.
8G\	.	8g\	.	16d 16B/	.	16ccc#X\L	.	.	.	.	.
.	.	.	.	16d 16B/	.	16ddd\JJ	.	.	.	.	.
8G\	.	8g\	.	16d 16B/	.	16ccc#\LL	.	.	.	.	.
.	.	.	.	16d 16B/	.	16bb\	.	.	.	.	.
8G\J	.	8g\J	.	16d 16B/	.	16aa#\	.	.	.	.	.
.	.	.	.	16d 16B/JJ	.	16gg\JJ	.	.	.	.	.
=63	=63	=63	=63	=63	=63	=63	=63	=63	=63	=63	=63
8A\L	.	8d\L	.	16f# 16A/LL	.	4aa\	.	.	.	1ryy	1ryy
.	.	.	.	16f# 16A/	.	.	.	.	.	.	.
8A\	.	8d\	.	16f# 16A/	.	.	.	.	.	.	.
.	.	.	.	16f# 16A/	.	.	.	.	.	.	.
8A\	.	8d\	.	16f# 16A/	.	16gg\LL	.	.	.	.	.
.	.	.	.	16f# 16A/	.	16ff#\	.	.	.	.	.
8A\J	.	8d\J	.	16f# 16A/	.	16ee\	.	.	.	.	.
.	.	.	.	16f# 16A/JJ	.	16dd\JJ	.	.	.	.	.
8AA/L	.	8c#X\L	.	16g 16A/LL	.	4a\	.	.	.	.	.
.	.	.	.	16g 16A/	.	.	.	.	.	.	.
8AA/	.	8c#X\	.	16g 16A/	.	.	.	.	.	.	.
.	.	.	.	16g 16A/	.	.	.	.	.	.	.
8AA/	.	8c#X\	.	16g 16A/	.	4eeM\	.	.	.	.	.
.	.	.	.	16g 16A/	.	.	.	.	.	.	.
8AA/J	.	8c#X\J	.	16g 16A/	.	.	.	.	.	.	.
.	.	.	.	16g 16A/JJ	.	.	.	.	.	.	.
*Xtremolo	*	*Xtremolo	*	*	*	*	*	*	*	*	*
=64	=64	=64	=64	=64	=64	=64	=64	=64	=64	=64	=64
*	*	*	*	*^	*	*	*	*	*	*	*
8D\L	.	8d\L	.	16a/LL	16f#\LL	.	4dd\	.	.	.	1ryy	1ryy
.	.	.	.	16a/	16f#\	.	.	.	.	.	.	.
8AA\	.	8A\	.	16a/	16f#\	.	.	.	.	.	.	.
.	.	.	.	16a/	16f#\	.	.	.	.	.	.	.
8D\	.	8d\	.	16a/	16f#\	.	8ff#|\L	.	.	.	.	.
.	.	.	.	16a/	16f#\	.	.	.	.	.	.	.
8AA\J	.	8A\J	.	16a/	16f#\	.	8ff#|\J	.	.	.	.	.
.	.	.	.	16a/JJ	16f#\JJ	.	.	.	.	.	.	.
8D\L	.	8d\L	.	16a/LL	16f#\LL	.	4ff#|\	.	.	.	.	.
.	.	.	.	16a/	16f#\	.	.	.	.	.	.	.
8AA\	.	8A\	.	16a/	16f#\	.	.	.	.	.	.	.
.	.	.	.	16a/	16f#\	.	.	.	.	.	.	.
8D\	.	8d\	.	16a/	16f#\	.	4ff#|\	.	.	.	.	.
.	.	.	.	16a/	16f#\	.	.	.	.	.	.	.
8AA\J	.	8A\J	.	16a/	16f#\	.	.	.	.	.	.	.
.	.	.	.	16a/JJ	16f#\JJ	.	.	.	.	.	.	.
!LO:LB:g=original	!	!	!	!	!	!	!	!	!	!	!	!
=65	=65	=65	=65	=65	=65	=65	=65	=65	=65	=65	=65	=65
8C#X/L	.	8c#X\L	.	16a/LL	16e\LL	.	4gg|\	.	.	.	1ryy	1ryy
.	.	.	.	16a/	16e\	.	.	.	.	.	.	.
8AA/	.	8A\	.	16a/	16e\	.	.	.	.	.	.	.
.	.	.	.	16a/	16e\	.	.	.	.	.	.	.
8C#/	.	8c#\	.	16a/	16e\	.	8g|/L	.	.	.	.	.
.	.	.	.	16a/	16e\	.	.	.	.	.	.	.
8AA/J	.	8A\J	.	16a/	16e\	.	8g|/J	.	.	.	.	.
.	.	.	.	16a/JJ	16e\JJ	.	.	.	.	.	.	.
8C#/L	.	8c#\L	.	16a/LL	16e\LL	.	8.g|/L	.	.	.	.	.
.	.	.	.	16a/	16e\	.	.	.	.	.	.	.
8AA/	.	8A\	.	16a/	16e\	.	.	.	.	.	.	.
.	.	.	.	16a/	16e\	.	(32f#/LL	.	.	.	.	.
.	.	.	.	.	.	.	32g/JJJ)	.	.	.	.	.
8C#/	.	8c#\	.	16a/	16e\	.	8a|/L	.	.	.	.	.
.	.	.	.	16a/	16e\	.	.	.	.	.	.	.
8AA/J	.	8A\J	.	16a/	16e\	.	8g|/J	.	.	.	.	.
.	.	.	.	16a/JJ	16e\JJ	.	.	.	.	.	.	.
=66	=66	=66	=66	=66	=66	=66	=66	=66	=66	=66	=66	=66
8D/L	.	8d\L	.	16a/LL	16f#\LL	.	4f#/	.	0r	.	1ryy	1ryy
.	.	.	.	16a/	16f#\	.	.	.	.	.	.	.
8AA/	.	8A\	.	16a/	16f#\	.	.	.	.	.	.	.
.	.	.	.	16a/	16f#\	.	.	.	.	.	.	.
8D/	.	8d\	.	16a/	16f#\	.	8ff#|\L	.	.	.	.	.
.	.	.	.	16a/	16f#\	.	.	.	.	.	.	.
8AA/J	.	8A\J	.	16a/	16f#\	.	8ff#|\J	.	.	.	.	.
.	.	.	.	16a/JJ	16f#\JJ	.	.	.	.	.	.	.
8D/L	.	8d\L	.	16a/LL	16f#\LL	.	4ff#|\	.	.	.	.	.
.	.	.	.	16a/	16f#\	.	.	.	.	.	.	.
8AA/	.	8A\	.	16a/	16f#\	.	.	.	.	.	.	.
.	.	.	.	16a/	16f#\	.	.	.	.	.	.	.
8D/	.	8d\	.	16a/	16f#\	.	4ff#|\	.	.	.	.	.
.	.	.	.	16a/	16f#\	.	.	.	.	.	.	.
8AA/J	.	8A\J	.	16a/	16f#\	.	.	.	.	.	.	.
.	.	.	.	16a/JJ	16f#\JJ	.	.	.	.	.	.	.
=67	=67	=67	=67	=67	=67	=67	=67	=67	=67	=67	=67	=67
*	*	*	*	*	*tremolo	*	*	*	*	*	*	*
8C#X/L	.	8c#X\L	.	16a/LL	16e\LL	.	4gg|\	.	.	.	1ryy	1ryy
.	.	.	.	16a/	16e\	.	.	.	.	.	.	.
8AA/	.	8A\	.	16a/	16e\	.	.	.	.	.	.	.
.	.	.	.	16a/	16e\	.	.	.	.	.	.	.
8C#/	.	8c#\	.	16a/	16e\	.	8g|/L	.	.	.	.	.
.	.	.	.	16a/	16e\	.	.	.	.	.	.	.
8AA/J	.	8A\J	.	16a/	16e\	.	8g|/J	.	.	.	.	.
.	.	.	.	16a/JJ	16e\JJ	.	.	.	.	.	.	.
8C#/L	.	8c#\L	.	16a/LL	16e\LL	.	8.g|/L	.	.	.	.	.
.	.	.	.	16a/	16e\	.	.	.	.	.	.	.
8AA/	.	8A\	.	16a/	16e\	.	.	.	.	.	.	.
.	.	.	.	16a/	16e\	.	(32f#/LL	.	.	.	.	.
.	.	.	.	.	.	.	32g/JJJ)	.	.	.	.	.
8C#/	.	8c#\	.	16a/	16e\	.	8a|/L	.	.	.	.	.
.	.	.	.	16a/	16e\	.	.	.	.	.	.	.
8AA/J	.	8A\J	.	16a/	16e\	.	8g|/J	.	.	.	.	.
.	.	.	.	16a/JJ	16e\JJ	.	.	.	.	.	.	.
*	*	*	*	*Xtremolo	*Xtremolo	*	*	*	*	*	*	*
!	!	!	!	!LO:LB:g=original	!	!	!	!	!	!	!	!
=68	=68	=68	=68	=68	=68	=68	=68	=68	=68	=68	=68	=68
4D\	.	4d\	.	4a/	4f#\	.	4f#/	.	1r	.	1ryy	1ryy
4DD/	.	4D/	.	4a/	4f#\	.	4ff# 4a 4d/	.	.	.	.	.
4DD/	.	4D/	.	4a/	4f#\	.	4ff# 4a 4d/	.	.	.	.	.
4r	.	4r	.	4r	4r	.	4r	.	.	.	.	.
!	!	!LO:LB:g=original	!	!	!	!	!LO:LB:g=original	!	!	!	!	!
=69	=69	=69	=69	=69	=69	=69	=69	=69	=69	=69	=69	=69
*tremolo	*	*tremolo	*	*tremolo	*tremolo	*	*	*	*	*	*	*
!	!LO:DY:b:rj:Bi:t=p&colon;	!	!LO:DY:b:rj:Bi:t=p&colon;	!	!	!LO:DY:a:rj:Bi:t=p&colon;	!LO:N:vis=2	!LO:DY:b:rj:Bi:t=p&colon;	!	!	!	!
8D\L	p	8d\L	p	16a/LL	16f#\LL	p	2.dd\	p	2D\	hanc	1ryy	1ryy
.	.	.	.	16a/	16f#\	.	.	.	.	.	.	.
8D\	.	8d\	.	16a/	16f#\	.	.	.	.	.	.	.
.	.	.	.	16a/	16f#\	.	.	.	.	.	.	.
8D\	.	8d\	.	16a/	16f#\	.	.	.	.	.	.	.
.	.	.	.	16a/	16f#\	.	.	.	.	.	.	.
8D\J	.	8d\J	.	16a/	16f#\	.	.	.	.	.	.	.
.	.	.	.	16a/JJ	16f#\JJ	.	.	.	.	.	.	.
8D\L	.	8d\L	.	16a/LL	16f#\LL	.	.	.	4F#\	su-	.	.
.	.	.	.	16a/	16f#\	.	.	.	.	.	.	.
8D\	.	8d\	.	16a/	16f#\	.	.	.	.	.	.	.
.	.	.	.	16a/	16f#\	.	.	.	.	.	.	.
8D\	.	8d\	.	16a/	16f#\	.	8ff#\L	.	4A\	-per	.	.
.	.	.	.	16a/	16f#\	.	.	.	.	.	.	.
8D\J	.	8d\J	.	16a/	16f#\	.	8aa\J	.	.	.	.	.
.	.	.	.	16a/JJ	16f#\JJ	.	.	.	.	.	.	.
=70	=70	=70	=70	=70	=70	=70	=70	=70	=70	=70	=70	=70
*	*	*	*	*	*tremolo	*	*	*	*	*	*	*
8E\L	.	8e\L	.	16a/LL	16g\LL	.	8aa\L	.	8A\L	San-	1ryy	1ryy
.	.	.	.	16a/	16g\	.	.	.	.	.	.	.
8E\	.	8e\	.	16a/	16g\	.	16bb\L	.	16B\L	.	.	.
.	.	.	.	16a/	16g\	.	16ff#\JJ	.	16F#\JJ	.	.	.
8E\	.	8e\	.	16a/	16g\	.	4gg\	.	4G\	-ctos	.	.
.	.	.	.	16a/	16g\	.	.	.	.	.	.	.
8E\J	.	8e\J	.	16a/	16g\	.	.	.	.	.	.	.
.	.	.	.	16a/JJ	16g\JJ	.	.	.	.	.	.	.
*Xtremolo	*	*Xtremolo	*	*Xtremolo	*Xtremolo	*	*	*	*	*	*	*
8E\L	.	8e\L	.	16a/LL	16g\LL	.	2r	.	2r	.	.	.
.	.	.	.	16a/	16g\	.	.	.	.	.	.	.
8E\	.	8e\	.	16a/	16g\	.	.	.	.	.	.	.
.	.	.	.	16a/JJ	16g\JJ	.	.	.	.	.	.	.
8D\	.	8d\	.	16a/LL	16f#\LL	.	.	.	.	.	.	.
.	.	.	.	16a/	16f#\	.	.	.	.	.	.	.
8D\J	.	8d\J	.	16a/	16f#\	.	.	.	.	.	.	.
.	.	.	.	16a/JJ	16f#\JJ	.	.	.	.	.	.	.
=71	=71	=71	=71	=71	=71	=71	=71	=71	=71	=71	=71	=71
*tremolo	*	*tremolo	*	*tremolo	*tremolo	*	*	*	*	*	*	*
8C#X\L	.	8c#X\L	.	16a/LL	16e\LL	.	2ee\	.	2e\	hanc	1ryy	1ryy
.	.	.	.	16a/	16e\	.	.	.	.	.	.	.
8C#X\	.	8c#X\	.	16a/	16e\	.	.	.	.	.	.	.
.	.	.	.	16a/	16e\	.	.	.	.	.	.	.
8C#X\	.	8c#X\	.	16a/	16e\	.	.	.	.	.	.	.
.	.	.	.	16a/	16e\	.	.	.	.	.	.	.
8C#X\J	.	8c#X\J	.	16a/	16e\	.	.	.	.	.	.	.
.	.	.	.	16a/JJ	16e\JJ	.	.	.	.	.	.	.
8C#\L	.	8c#\L	.	16a/LL	16e\LL	.	4.A/	.	4.AA/	su-	.	.
.	.	.	.	16a/	16e\	.	.	.	.	.	.	.
8C#\	.	8c#\	.	16a/	16e\	.	.	.	.	.	.	.
.	.	.	.	16a/	16e\	.	.	.	.	.	.	.
8C#\	.	8c#\	.	16a/	16e\	.	.	.	.	.	.	.
.	.	.	.	16a/	16e\	.	.	.	.	.	.	.
8C#\J	.	8c#\J	.	16a/	16e\	.	8gg\	.	8G\	-per	.	.
.	.	.	.	16a/JJ	16e\JJ	.	.	.	.	.	.	.
!	!	!	!	!	!	!	!	!	!LO:LB:g=original	!	!	!
=72	=72	=72	=72	=72	=72	=72	=72	=72	=72	=72	=72	=72
.	.	.	.	.	.	.	8qqaa/	.	8qqA/	.	.	.
8D\L	.	8d\L	.	16a/LL	16f#\LL	.	4gg\	.	4G\	San-	1ryy	1ryy
.	.	.	.	16a/	16f#\	.	.	.	.	.	.	.
8D\	.	8d\	.	16a/	16f#\	.	.	.	.	.	.	.
.	.	.	.	16a/	16f#\	.	.	.	.	.	.	.
8D\	.	8d\	.	16a/	16f#\	.	4ff#\	.	4F#\	-ctos	.	.
.	.	.	.	16a/	16f#\	.	.	.	.	.	.	.
8D\J	.	8d\J	.	16a/	16f#\	.	.	.	.	.	.	.
.	.	.	.	16a/JJ	16f#\JJ	.	.	.	.	.	.	.
8D\L	.	8d\L	.	16a/LL	16f#\LL	.	4ddd\	.	4d\	De-	.	.
.	.	.	.	16a/	16f#\	.	.	.	.	.	.	.
8D\	.	8d\	.	16a/	16f#\	.	.	.	.	.	.	.
.	.	.	.	16a/	16f#\	.	.	.	.	.	.	.
8D\	.	8d\	.	16a/	16f#\	.	8aa\L	.	8A\L	-us	.	.
.	.	.	.	16a/	16f#\	.	.	.	.	.	.	.
8D\J	.	8d\J	.	16a/	16f#\	.	8ff#\J	.	8F#\J	.	.	.
.	.	.	.	16a/JJ	16f#\JJ	.	.	.	.	.	.	.
!LO:LB:g=original	!	!	!	!	!	!	!	!	!	!	!	!
=73	=73	=73	=73	=73	=73	=73	=73	=73	=73	=73	=73	=73
8C#X\L	.	8c#X\L	.	16a/LL	16e\LL	.	4gg\	.	4G\	col-	1ryy	1ryy
.	.	.	.	16a/	16e\	.	.	.	.	.	.	.
8C#X\	.	8c#X\	.	16a/	16e\	.	.	.	.	.	.	.
.	.	.	.	16a/	16e\	.	.	.	.	.	.	.
8C#X\	.	8c#X\	.	16a/	16e\	.	8ee\L	.	8E\L	-lo-	.	.
.	.	.	.	16a/	16e\	.	.	.	.	.	.	.
!	!	!	!	!	!	!	!LO:SIC:v:s=8cc#\J	!	!	!	!	!
8C#X\J	.	8c#X\J	.	16a/	16e\	.	8cc\J	.	8C#X\J	.	.	.
.	.	.	.	16a/JJ	16e\JJ	.	.	.	.	.	.	.
8C#\L	.	8c#\L	.	16a/LL	16e\LL	.	4a\	.	4AA/	-ca-	.	.
.	.	.	.	16a/	16e\	.	.	.	.	.	.	.
8C#\	.	8c#\	.	16a/	16e\	.	.	.	.	.	.	.
.	.	.	.	16a/	16e\	.	.	.	.	.	.	.
8C#\	.	8c#\	.	16a/	16e\	.	4gg\	.	4G\	.	.	.
.	.	.	.	16a/	16e\	.	.	.	.	.	.	.
8C#\J	.	8c#\J	.	16a/	16e\	.	.	.	.	.	.	.
.	.	.	.	16a/JJ	16e\JJ	.	.	.	.	.	.	.
=74	=74	=74	=74	=74	=74	=74	=74	=74	=74	=74	=74	=74
8D\L	.	8d\L	.	16a/LL	16f#\LL	.	8ff#\L	.	8F#\L	.	1ryy	1ryy
.	.	.	.	16a/	16f#\	.	.	.	.	.	.	.
8D\	.	8d\	.	16a/	16f#\	.	8gg\J	.	16B\L	.	.	.
.	.	.	.	16a/	16f#\	.	.	.	16A\JJ	.	.	.
8D\	.	8d\	.	16a/	16f#\	.	4aa\	.	4A\	-vit	.	.
.	.	.	.	16a/	16f#\	.	.	.	.	.	.	.
8D\J	.	8d\J	.	16a/	16f#\	.	.	.	.	.	.	.
.	.	.	.	16a/JJ	16f#\JJ	.	.	.	.	.	.	.
8D\L	.	8d\L	.	16a/LL	16f#\LL	.	2r	.	2r	.	.	.
.	.	.	.	16a/	16f#\	.	.	.	.	.	.	.
8D\	.	8d\	.	16a/	16f#\	.	.	.	.	.	.	.
.	.	.	.	16a/	16f#\	.	.	.	.	.	.	.
8D\	.	8d\	.	16a/	16f#\	.	.	.	.	.	.	.
.	.	.	.	16a/	16f#\	.	.	.	.	.	.	.
8D\J	.	8d\J	.	16a/	16f#\	.	.	.	.	.	.	.
.	.	.	.	16a/JJ	16f#\JJ	.	.	.	.	.	.	.
!	!	!	!	!LO:LB:g=original	!	!	!	!	!	!	!	!
=75	=75	=75	=75	=75	=75	=75	=75	=75	=75	=75	=75	=75
8C#X\L	.	8c#X\L	.	16a/LL	16e\LL	.	4gg\	.	16G\LL	col-	1ryy	1ryy
.	.	.	.	16a/	16e\	.	.	.	16A\	.	.	.
8C#X\	.	8c#X\	.	16a/	16e\	.	.	.	16G\	.	.	.
.	.	.	.	16a/	16e\	.	.	.	16F#\JJ	.	.	.
8C#X\	.	8c#X\	.	16a/	16e\	.	8ee\L	.	16E\LL	.	.	.
.	.	.	.	16a/	16e\	.	.	.	16F#\	.	.	.
!	!	!	!	!	!	!	!LO:SIC:v:s=8cc#\J	!	!	!	!	!
8C#X\J	.	8c#X\J	.	16a/	16e\	.	8cc\J	.	16E\	.	.	.
.	.	.	.	16a/JJ	16e\JJ	.	.	.	16D\JJ	.	.	.
8C#\L	.	8c#\L	.	16a/LL	16e\LL	.	4a\	.	16C#X\LL	.	.	.
.	.	.	.	16a/	16e\	.	.	.	16D\	.	.	.
8C#\	.	8c#\	.	16a/	16e\	.	.	.	16C#\	.	.	.
.	.	.	.	16a/	16e\	.	.	.	16BB\JJ	.	.	.
8C#\	.	8c#\	.	16a/	16e\	.	4gg\	.	16AA/LL	.	.	.
.	.	.	.	16a/	16e\	.	.	.	16C#X/	.	.	.
8C#\J	.	8c#\J	.	16a/	16e\	.	.	.	16E/	-lo-	.	.
.	.	.	.	16a/JJ	16e\JJ	.	.	.	16G/JJ	.	.	.
=76	=76	=76	=76	=76	=76	=76	=76	=76	=76	=76	=76	=76
.	.	.	.	.	.	.	8qqgg/	.	8qqG/	.	.	.
8D\L	.	8d\L	.	16a/LL	16f#\LL	.	8ff#\L	.	8F#\L	-ca-	1ryy	1ryy
.	.	.	.	16a/	16f#\	.	.	.	.	.	.	.
8D\	.	8d\	.	16a/	16f#\	.	16ee\L	.	16E\L	.	.	.
.	.	.	.	16a/	16f#\	.	16dd\JJ	.	16D\JJ	.	.	.
8D\	.	8d\	.	16a/	16f#\	.	4dd\	.	4D\	-vit	.	.
.	.	.	.	16a/	16f#\	.	.	.	.	.	.	.
8D\J	.	8d\J	.	16a/	16f#\	.	.	.	.	.	.	.
.	.	.	.	16a/JJ	16f#\JJ	.	.	.	.	.	.	.
8D\L	.	8d\L	.	16a/LL	16f#\LL	.	2r	.	2r	.	.	.
.	.	.	.	16a/	16f#\	.	.	.	.	.	.	.
8D\	.	8d\	.	16a/	16f#\	.	.	.	.	.	.	.
.	.	.	.	16a/	16f#\	.	.	.	.	.	.	.
8D\	.	8d\	.	16a/	16f#\	.	.	.	.	.	.	.
.	.	.	.	16a/	16f#\	.	.	.	.	.	.	.
8D\J	.	8d\J	.	16a/	16f#\	.	.	.	.	.	.	.
.	.	.	.	16a/JJ	16f#\JJ	.	.	.	.	.	.	.
*	*	*	*	*v	*v	*	*	*	*	*	*	*
!	!	!	!	!	!	!LO:LB:g=original	!	!LO:LB:g=original	!	!	!
=77	=77	=77	=77	=77	=77	=77	=77	=77	=77	=77	=77
*	*	*	*	*	*	*tremolo	*	*	*	*	*
8d\L	.	8d\L	.	8f#/L	.	8dd\L	.	4d\	hanc	1ryy	1ryy
8d\	.	8d\	.	8f#/	.	8dd\	.	.	.	.	.
8d\	.	8d\	.	8f#/	.	8dd\	.	8d\L	su-	.	.
8d\J	.	8d\J	.	8f#/J	.	8dd\J	.	8d\J	-per	.	.
8cn\L	.	8cnX\L	.	8f#/L	.	8dd\L	.	4d\	San-	.	.
8cn\	.	8c\	.	8f#/	.	8dd\	.	.	.	.	.
8cn\	.	8c\	.	8f#/	.	8dd\	.	4d\	-ctos	.	.
8cn\J	.	8c\J	.	8f#/J	.	8dd\J	.	.	.	.	.
*Xtremolo	*	*Xtremolo	*	*	*	*	*	*	*	*	*
!	!	!LO:LB:g=original	!	!	!	!	!	!	!	!	!
=78	=78	=78	=78	=78	=78	=78	=78	=78	=78	=78	=78
!	!	!LO:TX:t=P:problem:mixed beam	!	!LO:TX:t=P:problem:LO:SIC:v:s=2fn/	!	!	!	!	!	!	!
8B\L	.	8B/L	.	8f#/L	.	8dd\L	.	8fn\L	col'-	1ryy	1ryy
8B\	.	8b\J	.	8f#/	.	8dd\	.	16e\L	.	.	.
.	.	.	.	.	.	.	.	16d\JJ	.	.	.
8A\	.	8a\L	.	8f#/	.	8dd\	.	4d\	-lo-	.	.
8A\J	.	8a\J	.	8f#/J	.	8dd\J	.	.	.	.	.
!	!	!	!	!LO:TX:t=P:problem:LO:SIC:v:s=2fn/	!	!	!	!	!	!	!
8G#X\L	.	8g#X\L	.	8f#/L	.	8dd\L	.	8d\L	-ca-	.	.
8G#\	.	8g#\	.	8f#/	.	8dd\	.	8cn\	.	.	.
8Fn\	.	8fn\	.	8f#/	.	8dd\	.	8B\	.	.	.
8F\J	.	8f\J	.	8f#/J	.	8dd\J	.	8A\J	.	.	.
*	*	*	*	*Xtremolo	*	*	*	*	*	*	*
=79	=79	=79	=79	=79	=79	=79	=79	=79	=79	=79	=79
(8E\L	.	(8e\L	.	(8g#X/L	.	8dd\L	.	(8G#X\L	.	1ryy	1ryy
8Fn\)	.	8fn\)	.	8a/)	.	8dd\	.	8A\)	.	.	.
(8E\	.	(8e\	.	(8g#/	.	8dd\	.	(8G#\	.	.	.
8F\J)	.	8f\J)	.	8a/J)	.	8dd\J	.	8A\J)	.	.	.
(8E\L	.	8e\L	.	(8g#/L	.	8dd\L	.	(8G#\L	.	.	.
8F\)	.	8fn\	.	8a/)	.	8dd\	.	8A\)	.	.	.
(8E\	.	8e\	.	(8g#/	.	8dd\	.	(8G#\	.	.	.
8F\J)	.	8f\J	.	8a/J)	.	8dd\J	.	8A\J)	.	.	.
=80	=80	=80	=80	=80	=80	=80	=80	=80	=80	=80	=80
*tremolo	*	*tremolo	*	*tremolo	*	*	*	*	*	*	*
!	!	!	!	!	!	!	!	!LO:N:vis=4.	!	!	!
8E\L	.	8e\L	.	8g#X/L	.	8dd\L	.	4G#X\	.	1ryy	1ryy
8E\	.	8e\	.	8g#X/	.	8dd\	.	.	.	.	.
8E\	.	8e\	.	8g#X/	.	8dd\	.	4.B\	.	.	.
8E\J	.	8e\J	.	8g#X/J	.	8dd\J	.	.	.	.	.
8G#X\L	.	8e\L	.	8e/L	.	8dd\L	.	.	.	.	.
8G#X\	.	8e\	.	8e/	.	8dd\	.	8d\L	.	.	.
8G#X\	.	8e\	.	8e/	.	8dd\	.	8cn\	.	.	.
8G#X\J	.	8e\J	.	8e/J	.	8dd\J	.	8B\J	.	.	.
*Xtremolo	*	*Xtremolo	*	*Xtremolo	*	*Xtremolo	*	*	*	*	*
!LO:LB:g=original	!	!	!	!	!	!	!	!	!	!	!
=81	=81	=81	=81	=81	=81	=81	=81	=81	=81	=81	=81
!	!LO:DY:b:Bi:t=for	!	!	!LO:TX:t=P:problem:zapis niejednoznaczny	!	!	!	!	!	!	!
4A\	f	4e\	.	4a 4e/	.	4ccn\	.	8c\L	.	1ryy	1ryy
.	.	.	.	.	.	.	.	16B\L	.	.	.
.	.	.	.	.	.	.	.	16A\JJ	.	.	.
8r	.	8r	.	8r	.	8r	.	4A\	-vit	.	.
16A|\LL	.	16a\LL	.	16a/LL	.	(16a/LL	.	.	.	.	.
16G#X|\JJ	.	16g#X\JJ	.	16g#X/JJ	.	16g#X/JJ)	.	.	.	.	.
8A|\L	.	8a\L	.	8a/L	.	8a|/L	.	2r	.	.	.
8E|\	.	8e\	.	8e/	.	8e|/	.	.	.	.	.
8C|\	.	8c\	.	8c/	.	8cn|/	.	.	.	.	.
8AA|\J	.	8e\J	.	8A/J	.	8A|/J	.	.	.	.	.
!	!	!	!	!	!	!	!	!LO:LB:g=original	!	!	!
=82	=82	=82	=82	=82	=82	=82	=82	=82	=82	=82	=82
*tremolo	*	*tremolo	*	*tremolo	*	*tremolo	*	*	*	*	*
!	!LO:DY:b:Bi:t=p&colon;	!	!	!	!	!	!	!	!	!	!
8c\L	p	8c\L	.	8e/L	.	8cc\L	.	4c\	hanc	1ryy	1ryy
8c\	.	8c\	.	8e/	.	8cc\	.	.	.	.	.
8c\	.	8c\	.	8e/	.	8cc\	.	8c\L	post	.	.
8c\J	.	8c\J	.	8e/J	.	8cc\J	.	8c\J	se	.	.
8B\L	.	8B\L	.	8e/L	.	8cc\L	.	4c\	De-	.	.
8B\	.	8B\	.	8e/	.	8cc\	.	.	.	.	.
8B\	.	8B\	.	8e/	.	8cc\	.	4c\	-us	.	.
8B\J	.	8B\J	.	8e/J	.	8cc\J	.	.	.	.	.
*Xtremolo	*	*Xtremolo	*	*	*	*	*	*	*	*	*
!	!	!	!	!LO:LB:g=original	!	!	!	!	!	!	!
=83	=83	=83	=83	=83	=83	=83	=83	=83	=83	=83	=83
!	!	!LO:TX:t=P:problem:mixed beam	!	!	!	!	!	!	!	!	!
8A\L	.	8A/L	.	8e-X/L	.	8cc\L	.	8e-X\L	Vo-	1ryy	1ryy
8A\	.	8a\J	.	8e-X/	.	8cc\	.	16d\L	.	.	.
.	.	.	.	.	.	.	.	16c\JJ	.	.	.
8G\	.	8g\L	.	8e-X/	.	8cc\	.	4.c\	-ca-	.	.
8G\J	.	8g\J	.	8e-X/J	.	8cc\J	.	.	.	.	.
8F#X\L	.	8f#X\L	.	8e-/L	.	8cc\L	.	.	.	.	.
8F#\	.	8f#\	.	8e-/	.	8cc\	.	8B\L	.	.	.
8E-X\	.	8e-X\	.	8e-/	.	8cc\	.	8A\	.	.	.
8E-\J	.	8e-\J	.	8e-/J	.	8cc\J	.	8G\J	.	.	.
*	*	*	*	*Xtremolo	*	*	*	*	*	*	*
=84	=84	=84	=84	=84	=84	=84	=84	=84	=84	=84	=84
(8D\L	.	(8d\L	.	(8f#X/L	.	8cc\L	.	(8F#X\L	.	1ryy	1ryy
8E-X\)	.	8e-X\)	.	8g/)	.	8cc\	.	8G\)	.	.	.
(8D\	.	(8d\	.	(8f#/	.	8cc\	.	(8F#\	.	.	.
8E-\J)	.	8e-\J)	.	8g/J)	.	8cc\J	.	8G\J)	.	.	.
!	!	!LO:LB:g=original	!	!	!	!	!	!	!	!	!
(8D\L	.	(8d\L	.	(8f#/L	.	8cc\L	.	(8F#\L	.	.	.
8E-X\)	.	8e-X\)	.	8g/)	.	8cc\	.	8G\)	.	.	.
(8D\	.	(8d\	.	(8f#/	.	8cc\	.	(8F#\	.	.	.
8E-\J)	.	8e-\J)	.	8g/J)	.	8cc\J	.	8G\J)	.	.	.
=85	=85	=85	=85	=85	=85	=85	=85	=85	=85	=85	=85
*tremolo	*	*tremolo	*	*tremolo	*	*	*	*	*	*	*
8D\L	.	8d\L	.	8f#/L	.	8cc\L	.	4F#X\	-vit	1ryy	1ryy
8D\	.	8d\	.	8f#/	.	8cc\	.	.	.	.	.
8D\	.	8d\	.	8f#/	.	8cc\	.	4e-X\	hanc	.	.
8D\J	.	8d\J	.	8f#/J	.	8cc\J	.	.	.	.	.
8F#\L	.	8f#\L	.	8a/L	.	8cc\L	.	4d\	post	.	.
8F#\	.	8f#\	.	8a/	.	8cc\	.	.	.	.	.
8F#\	.	8f#\	.	8a/	.	8cc\	.	4c\	se	.	.
8F#\J	.	8f#\J	.	8a/J	.	8cc\J	.	.	.	.	.
=86	=86	=86	=86	=86	=86	=86	=86	=86	=86	=86	=86
8G\L	.	8g\L	.	8d/L	.	8b\L	.	4B\	De-	1ryy	1ryy
8G\	.	8g\	.	8d/	.	8b\	.	.	.	.	.
8G\	.	8g\	.	8d/	.	8b\	.	8A\L	.	.	.
8G\J	.	8g\J	.	8d/J	.	8b\J	.	8G\J	.	.	.
8BB/L	.	8B/L	.	8a/L	.	8dd\L	.	4d\	-us	.	.
8BB/	.	8B/	.	8a/	.	8dd\	.	.	.	.	.
8BB/	.	8B/	.	8a/	.	8dd\	.	4Fn\	vo-	.	.
8BB/J	.	8B/J	.	8a/J	.	8dd\J	.	.	.	.	.
!	!	!	!	!	!	!LO:LB:g=original	!	!	!	!	!
=87	=87	=87	=87	=87	=87	=87	=87	=87	=87	=87	=87
8C/L	.	8c\L	.	8g/L	.	8ee\L	.	4E\	-ca-	1ryy	1ryy
8C/	.	8c\	.	8g/	.	8ee\	.	.	.	.	.
8C/	.	8c\	.	8g/	.	8ee\	.	8c\L	.	.	.
8C/J	.	8c\J	.	8g/J	.	8ee\J	.	8B\J	.	.	.
*Xtremolo	*	*Xtremolo	*	*Xtremolo	*	*Xtremolo	*	*	*	*	*
8C\L	.	8c\L	.	8f#/L	.	8cc\L	.	4A\	.	.	.
8C\	.	8c\	.	8f#/	.	8cc\	.	.	.	.	.
8C#X\	.	8c#X\	.	8g/	.	8b\	.	4G\	.	.	.
8C#\J	.	8c#\J	.	8g/J	.	8b\J	.	.	.	.	.
!LO:LB:g=original	!	!	!	!	!	!	!	!LO:LB:g=original	!	!	!
=88	=88	=88	=88	=88	=88	=88	=88	=88	=88	=88	=88
*tremolo	*	*tremolo	*	*	*	*	*	*	*	*	*
8D\L	.	8d\L	.	8g/L	.	8b\L	.	4GM\	.	1ryy	1ryy
8D\	.	8d\	.	8g/	.	8b\	.	.	.	.	.
8D\	.	8d\	.	8f#/	.	8a\	.	4F#\	-vit	.	.
8D\J	.	8d\J	.	8f#/J	.	8a\J	.	.	.	.	.
*Xtremolo	*	*	*	*	*	*	*	*	*	*	*
!	!	!	!	!	!	!	!LO:DY:b:Bi:t=for	!	!	!	!
8D\L	.	8d\L	.	4B/	.	8dd\L	f	2r	.	.	.
8D\	.	8d\	.	.	.	8dd\J	.	.	.	.	.
8Cn\	.	8d\	.	8.c|/L	.	8.f#'>/L	.	.	.	.	.
8C\J	.	8d\J	.	.	.	.	.	.	.	.	.
.	.	.	.	(32B/LL	.	(32e/LL	.	.	.	.	.
.	.	.	.	32c/JJJ)	.	32f#/JJJ)	.	.	.	.	.
=89	=89	=89	=89	=89	=89	=89	=89	=89	=89	=89	=89
*tremolo	*	*	*	*	*	*	*	*	*	*	*
!	!	!	!	!	!	!	!LO:DY:b:Bi:t=p&colon;	!	!	!	!
8BB/L	.	8B\L	.	8B/L	.	8g/L	p	4G\	Nam	1ryy	1ryy
8BB/	.	8B\	.	8g/	.	8dd/	.	.	.	.	.
8BB/	.	8B\	.	8g/	.	8dd/	.	8.G\L	hoc	.	.
8BB/J	.	8B\J	.	8g/J	.	8dd/J	.	.	.	.	.
.	.	.	.	.	.	.	.	16G\Jk	est	.	.
*	*	*	*	*tremolo	*	*tremolo	*	*	*	*	*
8BB/L	.	8B\L	.	8g/L	.	8dd\L	.	4G\	di-	.	.
8BB/	.	8B\	.	8g/	.	8dd\	.	.	.	.	.
8BB/	.	8B\	.	8g/	.	8dd\	.	4Fn\	-gna	.	.
8BB/J	.	8B\J	.	8g/J	.	8dd\J	.	.	.	.	.
=90	=90	=90	=90	=90	=90	=90	=90	=90	=90	=90	=90
8C/L	.	8c\L	.	8g/L	.	8ee\L	.	16E\LL	a-	1ryy	1ryy
.	.	.	.	.	.	.	.	16Fn\	.	.	.
8C/	.	8c\	.	8g/	.	8ee\	.	16E\	.	.	.
.	.	.	.	.	.	.	.	16D#X\JJ	.	.	.
8C/	.	8c\	.	8g/	.	8ee\	.	4E\	.	.	.
8C/J	.	8c\J	.	8g/J	.	8ee\J	.	.	.	.	.
*	*	*	*	*Xtremolo	*	*	*	*	*	*	*
8C/L	.	8c\L	.	8g/L	.	8ee\L	.	8r	.	.	.
8C/	.	8c\	.	8g/	.	8ee\	.	8E\L	.	.	.
!	!	!	!	!	!	!	!	!LO:SIC:v:s=8.F#\	!	!	!
8C/	.	8c\	.	8g/	.	8ee\	.	8.F\	.	.	.
8C/J	.	8c\J	.	8g#X/J	.	8ee\J	.	.	.	.	.
.	.	.	.	.	.	.	.	16G#X\Jk	.	.	.
!	!	!	!	!LO:LB:g=original	!	!	!	!	!	!	!
=91	=91	=91	=91	=91	=91	=91	=91	=91	=91	=91	=91
*	*	*	*	*tremolo	*	*	*	*	*	*	*
8C/L	.	8c\L	.	8a/L	.	8ee\L	.	16A\LL	.	1ryy	1ryy
.	.	.	.	.	.	.	.	16B\	.	.	.
8C/	.	8c\	.	8a/	.	8ee\	.	16A\	.	.	.
.	.	.	.	.	.	.	.	16G#X\JJ	.	.	.
8C/	.	8c\	.	8a/	.	8ee\	.	4.A\	.	.	.
8C/J	.	8c\J	.	8a/J	.	8ee\J	.	.	.	.	.
8C/L	.	8c\L	.	8a/L	.	8ee\L	.	.	.	.	.
8C/	.	8c\	.	8a/	.	8ee\	.	8Gn\L	.	.	.
8C/	.	8c\	.	8a/	.	8ee\	.	8F#\	.	.	.
8C/J	.	8c\J	.	8a/J	.	8ee\J	.	8E\J	.	.	.
=92	=92	=92	=92	=92	=92	=92	=92	=92	=92	=92	=92
8D\L	.	8d\L	.	8a/L	.	8ff#\L	.	16F#\LL	.	1ryy	1ryy
.	.	.	.	.	.	.	.	16G\	.	.	.
8D\	.	8d\	.	8a/	.	8ff#\	.	16F#\	.	.	.
.	.	.	.	.	.	.	.	16E\JJ	.	.	.
8D\	.	8d\	.	8a/	.	8ff#\	.	4.F#\	.	.	.
8D\J	.	8d\J	.	8a/J	.	8ff#\J	.	.	.	.	.
8D\L	.	8d\L	.	8a/L	.	8ff#\L	.	.	.	.	.
8D\	.	8d\	.	8a/	.	8ff#\	.	8F#\L	.	.	.
8D\	.	8d\	.	8a/	.	8ff#\	.	8G\	.	.	.
8D\J	.	8d\J	.	8a/J	.	8ff#\J	.	8A\J	.	.	.
=93	=93	=93	=93	=93	=93	=93	=93	=93	=93	=93	=93
8D\L	.	8d\L	.	8b\L	.	8ff#\L	.	16B\LL	.	1ryy	1ryy
.	.	.	.	.	.	.	.	16c\	.	.	.
8D\	.	8d\	.	8b\	.	8ff#\	.	16B\	.	.	.
.	.	.	.	.	.	.	.	16A\JJ	.	.	.
8D\	.	8d\	.	8b\	.	8ff#\	.	4.B\	.	.	.
8D\J	.	8d\J	.	8b\J	.	8ff#\J	.	.	.	.	.
8D\L	.	8d\L	.	8b\L	.	8ff#\L	.	.	.	.	.
8D\	.	8d\	.	8b\	.	8ff#\	.	8A\L	.	.	.
8D\	.	8d\	.	8b\	.	8ff#\	.	8G\	.	.	.
8D\J	.	8d\J	.	8b\J	.	8ff#\J	.	8F#\J	.	.	.
!	!	!LO:LB:g=original	!	!	!	!	!	!LO:LB:g=original	!	!	!
=94	=94	=94	=94	=94	=94	=94	=94	=94	=94	=94	=94
!	!	!LO:TX:t=e	!	!	!	!	!	!	!	!	!
8E\L	.	8e\L	.	8b\L	.	8gg\L	.	16G\LL	.	1ryy	1ryy
.	.	.	.	.	.	.	.	16A\	.	.	.
8E\	.	8e\	.	8b\	.	8gg\	.	16G\	.	.	.
.	.	.	.	.	.	.	.	16F#\JJ	.	.	.
8E\	.	8e\	.	8b\	.	8gg\	.	4.G\	.	.	.
8E\J	.	8e\J	.	8b\J	.	8gg\J	.	.	.	.	.
8E\L	.	8e\L	.	8b\L	.	8gg\L	.	.	.	.	.
8E\	.	8e\	.	8b\	.	8gg\	.	8G\L	.	.	.
8E\	.	8e\	.	8b\	.	8gg\	.	8A\	.	.	.
8E\J	.	8e\J	.	8b\J	.	8gg\J	.	8B\J	.	.	.
=95	=95	=95	=95	=95	=95	=95	=95	=95	=95	=95	=95
8E\L	.	8e\L	.	8cc\L	.	8gg\L	.	16c\LL	.	1ryy	1ryy
.	.	.	.	.	.	.	.	16d\	.	.	.
8E\	.	8e\	.	8cc\	.	8gg\	.	16c\	.	.	.
.	.	.	.	.	.	.	.	16B\JJ	.	.	.
8E\	.	8e\	.	8cc\	.	8gg\	.	4c\	.	.	.
8E\J	.	8e\J	.	8cc\J	.	8gg\J	.	.	.	.	.
8E\L	.	8e\L	.	8cc\L	.	8gg\L	.	8ryy	.	.	.
8E\	.	8e\	.	8cc\	.	8gg\	.	8B\L	.	.	.
8E\	.	8e\	.	8cc\	.	8gg\	.	8A\	.	.	.
8E\J	.	8e\J	.	8cc\J	.	8gg\J	.	8G\J	.	.	.
=96	=96	=96	=96	=96	=96	=96||:	=96	=96	=96	=96	=96
8F#\L	.	8f#\L	.	8cc\L	.	8aa\L	.	16A\LL	.	1ryy	1ryy
.	.	.	.	.	.	.	.	16B\	.	.	.
8F#\	.	8f#\	.	8cc\	.	8aa\	.	16A\	.	.	.
.	.	.	.	.	.	.	.	16G\JJ	.	.	.
8F#\	.	8f#\	.	8cc\	.	8aa\	.	4.A\	.	.	.
8F#\J	.	8f#\J	.	8cc\J	.	8aa\J	.	.	.	.	.
8F#\L	.	8f#\L	.	8cc\L	.	8aa\L	.	.	.	.	.
8F#\	.	8f#\	.	8cc\	.	8aa\	.	8A\L	.	.	.
8F#\	.	8f#\	.	8cc\	.	8aa\	.	8B\	.	.	.
8F#\J	.	8f#\J	.	8cc\J	.	8aa\J	.	8c\J	.	.	.
!LO:LB:g=original	!	!	!	!	!	!	!	!	!	!	!
=97	=97	=97	=97	=97	=97	=97:||	=97	=97	=97	=97	=97
!	!	!	!	!	!	!LO:TX:t=P:problem:t. 97 zapisany repetycją	!	!	!	!	!
8F#\L	.	8f#\L	.	8dd\L	.	8aa\Lyy	.	16d\LL	.	1ryy	1ryy
.	.	.	.	.	.	.	.	16e\	.	.	.
8F#\	.	8f#\	.	8dd\	.	8aa\yy	.	16d\	.	.	.
.	.	.	.	.	.	.	.	16c\JJ	.	.	.
8F#\	.	8f#\	.	8dd\	.	8aa\yy	.	4.d\	.	.	.
8F#\J	.	8f#\J	.	8dd\J	.	8aa\Jyy	.	.	.	.	.
8F#\L	.	8f#\L	.	8dd\L	.	8aa\Lyy	.	.	.	.	.
8F#\	.	8f#\	.	8dd\	.	8aa\yy	.	8c\L	.	.	.
8F#\	.	8f#\	.	8dd\	.	8aa\yy	.	8B\	.	.	.
8F#\J	.	8f#\J	.	8dd\J	.	8aa\Jyy	.	8A\J	.	.	.
*Xtremolo	*	*Xtremolo	*	*Xtremolo	*	*Xtremolo	*	*	*	*	*
!	!	!	!	!	!	!LO:LB:g=original	!	!	!	!	!
=98	=98	=98	=98	=98	=98	=98	=98	=98	=98	=98	=98
8G\L	.	8g\L	.	4dd\	.	4bb\	.	(4B\	-mo-	1ryy	1ryy
8G\	.	8g\	.	.	.	.	.	.	.	.	.
8B\	.	8B\	.	4b\	.	4gg\	.	4d\)	.	.	.
8B\J	.	8B\J	.	.	.	.	.	.	.	.	.
!LO:TX:t=P:problem:mixed beam	!	!	!	!	!	!	!	!	!	!	!
8c\L	.	8c\L	.	4g\	.	4ee\	.	4E\	-re	.	.
8C/	.	8c\	.	.	.	.	.	.	.	.	.
8C/	.	8e\	.	4g\	.	4cc\	.	4c\	Di-	.	.
8C/J	.	8e\J	.	.	.	.	.	.	.	.	.
=99	=99	=99	=99	=99	=99	=99	=99	=99	=99	=99	=99
*tremolo	*	*tremolo	*	*tremolo	*	*tremolo	*	*	*	*	*
!	!	!	!	!	!LO:DY:b:Bi:t=f&colon;	!	!	!	!	!	!
8D\L	.	8d\L	.	16b 16d/LL	f	16gg\LL	.	2D\	-vi-	1ryy	1ryy
.	.	.	.	16b 16d/	.	16gg\	.	.	.	.	.
8D\	.	8d\	.	16b 16d/	.	16gg\	.	.	.	.	.
.	.	.	.	16b 16d/	.	16gg\	.	.	.	.	.
8D\	.	8d\	.	16b 16d/	.	16gg\	.	.	.	.	.
.	.	.	.	16b 16d/	.	16gg\	.	.	.	.	.
8D\J	.	8d\J	.	16b 16d/	.	16gg\	.	.	.	.	.
.	.	.	.	16b 16d/JJ	.	16gg\JJ	.	.	.	.	.
8DD/L	.	8d\L	.	16a 16d/LL	.	16ff#\LL	.	2AM\	.	.	.
.	.	.	.	16a 16d/	.	16ff#\	.	.	.	.	.
8DD/	.	8d\	.	16a 16d/	.	16ff#\	.	.	.	.	.
.	.	.	.	16a 16d/	.	16ff#\	.	.	.	.	.
8DD/	.	8d\	.	16a 16d/	.	16ff#\	.	.	.	.	.
.	.	.	.	16a 16d/	.	16ff#\	.	.	.	.	.
8DD/J	.	8d\J	.	16a 16d/	.	16ff#\	.	.	.	.	.
.	.	.	.	16a 16d/JJ	.	16ff#\JJ	.	.	.	.	.
*Xtremolo	*	*Xtremolo	*	*Xtremolo	*	*Xtremolo	*	*	*	*	*
=100	=100	=100	=100	=100	=100	=100	=100	=100	=100	=100	=100
!	!	!	!	!LO:TX:b:t=mezo	!	!	!	!	!	!	!
8G\L	.	8g\L	.	16g/LL	.	4gg\	.	4G\	-no	1ryy	1ryy
.	.	.	.	16d/	.	.	.	.	.	.	.
8D\	.	8d\	.	16d/	.	.	.	.	.	.	.
.	.	.	.	16d/JJ	.	.	.	.	.	.	.
8G\	.	8g\	.	16d/LL	.	4r	.	4r	.	.	.
.	.	.	.	16d/	.	.	.	.	.	.	.
8D\J	.	8d\J	.	16d/	.	.	.	.	.	.	.
.	.	.	.	16d/JJ	.	.	.	.	.	.	.
*	*	*	*	*tremolo	*	*	*	*	*	*	*
8G\L	.	8f#\L	.	16d/LL	.	4r	.	4r	.	.	.
.	.	.	.	16d/	.	.	.	.	.	.	.
8D\	.	8d\	.	16d/	.	.	.	.	.	.	.
.	.	.	.	16d/	.	.	.	.	.	.	.
8F#\	.	8f#\	.	16d/	.	8.a\L	.	8.A\L	est	.	.
.	.	.	.	16d/	.	.	.	.	.	.	.
8D\J	.	8d\J	.	16d/	.	.	.	.	.	.	.
.	.	.	.	16d/JJ	.	16cc\Jk	.	16c\Jk	.	.	.
!	!	!	!	!LO:LB:g=original	!	!	!	!LO:LB:g=original	!	!	!
=101	=101	=101	=101	=101	=101	=101	=101	=101	=101	=101	=101
8G\L	.	8g\L	.	16d/LL	.	4b\	.	4B\	di-	1ryy	1ryy
.	.	.	.	16d/	.	.	.	.	.	.	.
8D\	.	8d\	.	16d/	.	.	.	.	.	.	.
.	.	.	.	16d/	.	.	.	.	.	.	.
8G\	.	8g\	.	16d/	.	4dd\	.	4d\	-gna	.	.
.	.	.	.	16d/	.	.	.	.	.	.	.
8D\J	.	8d\J	.	16d/	.	.	.	.	.	.	.
.	.	.	.	16d/JJ	.	.	.	.	.	.	.
8A\L	.	8a\L	.	16d/LL	.	4r	.	4r	.	.	.
.	.	.	.	16d/	.	.	.	.	.	.	.
8D\	.	8d\	.	16d/	.	.	.	.	.	.	.
.	.	.	.	16d/	.	.	.	.	.	.	.
8A\	.	8a\	.	16d/	.	8.a\L	.	8.A\L	a-	.	.
.	.	.	.	16d/	.	.	.	.	.	.	.
8D\J	.	8d\J	.	16d/	.	.	.	.	.	.	.
.	.	.	.	16d/JJ	.	16f#\Jk	.	16F#\Jk	.	.	.
=102	=102	=102	=102	=102	=102	=102	=102	=102	=102	=102	=102
8B\L	.	8b\L	.	16d/LL	.	4g/	.	4G\	-mo-	1ryy	1ryy
.	.	.	.	16d/	.	.	.	.	.	.	.
8D\	.	8d\	.	16d/	.	.	.	.	.	.	.
.	.	.	.	16d/	.	.	.	.	.	.	.
8B\	.	8b\	.	16d/	.	4d/	.	4D\	-re,	.	.
.	.	.	.	16d/	.	.	.	.	.	.	.
8D\J	.	8d\J	.	16d/	.	.	.	.	.	.	.
.	.	.	.	16d/JJ	.	.	.	.	.	.	.
8F#\L	.	8f#\L	.	16d/LL	.	4r	.	4r	.	.	.
.	.	.	.	16d/	.	.	.	.	.	.	.
8D\	.	8d\	.	16d/	.	.	.	.	.	.	.
.	.	.	.	16d/	.	.	.	.	.	.	.
8F#\	.	8f#\	.	16d/	.	8.a\L	.	8.A\L	est	.	.
.	.	.	.	16d/	.	.	.	.	.	.	.
8D\J	.	8d\J	.	16d/	.	.	.	.	.	.	.
.	.	.	.	16d/JJ	.	16cc\Jk	.	16c\Jk	.	.	.
!	!	!LO:LB:g=original	!	!	!	!	!	!	!	!	!
=103	=103	=103	=103	=103	=103	=103	=103	=103	=103	=103	=103
8G\L	.	8g\L	.	16d/LL	.	4b\	.	4B\	di-	1ryy	1ryy
.	.	.	.	16d/	.	.	.	.	.	.	.
8D\	.	8d\	.	16d/	.	.	.	.	.	.	.
.	.	.	.	16d/	.	.	.	.	.	.	.
8G\	.	8g\	.	16d/	.	4dd\	.	4d\	-gna	.	.
.	.	.	.	16d/	.	.	.	.	.	.	.
8D\J	.	8d\J	.	16d/	.	.	.	.	.	.	.
.	.	.	.	16d/JJ	.	.	.	.	.	.	.
8A\L	.	8a\L	.	16d/LL	.	4r	.	4r	.	.	.
.	.	.	.	16d/	.	.	.	.	.	.	.
8D\	.	8d\	.	16d/	.	.	.	.	.	.	.
.	.	.	.	16d/	.	.	.	.	.	.	.
8A\	.	8a\	.	16d/	.	8.a/L	.	8.A\L	a-	.	.
.	.	.	.	16d/	.	.	.	.	.	.	.
8D\J	.	8d\J	.	16d/	.	.	.	.	.	.	.
.	.	.	.	16d/JJ	.	16f#/Jk	.	16F#\Jk	.	.	.
!LO:LB:g=original	!	!	!	!	!	!	!	!	!	!	!
=104	=104	=104	=104	=104	=104	=104	=104	=104	=104	=104	=104
8B\L	.	8b\L	.	16d/LL	.	4g/	.	4G\	-mo-	1ryy	1ryy
.	.	.	.	16d/	.	.	.	.	.	.	.
8D\	.	8d\	.	16d/	.	.	.	.	.	.	.
.	.	.	.	16d/	.	.	.	.	.	.	.
8B\	.	8b\	.	16d/	.	4d/	.	4D\	-re	.	.
.	.	.	.	16d/	.	.	.	.	.	.	.
8D\J	.	8d\J	.	16d/	.	.	.	.	.	.	.
.	.	.	.	16d/JJ	.	.	.	.	.	.	.
8F#\L	.	8f#\L	.	16d/LL	.	4r	.	4r	.	.	.
.	.	.	.	16d/	.	.	.	.	.	.	.
8D\	.	8d\	.	16d/	.	.	.	.	.	.	.
.	.	.	.	16d/	.	.	.	.	.	.	.
8F#\	.	8f#\	.	16d/	.	8.a\L	.	8.A\L	est	.	.
.	.	.	.	16d/	.	.	.	.	.	.	.
8D\J	.	8d\J	.	16d/	.	.	.	.	.	.	.
.	.	.	.	16d/JJ	.	16cc\Jk	.	16c\Jk	.	.	.
*	*	*	*	*Xtremolo	*	*	*	*	*	*	*
=105	=105	=105	=105	=105	=105	=105	=105	=105	=105	=105	=105
*	*	*	*	*	*	*tremolo	*	*	*	*	*
8G\L	.	4g\	.	16b\LL	.	16gg\LL	.	4B\	Di-	1ryy	1ryy
.	.	.	.	16b\	.	16gg\	.	.	.	.	.
8G\	.	.	.	16b\	.	16gg\	.	.	.	.	.
.	.	.	.	16b\JJ	.	16gg\JJ	.	.	.	.	.
!	!	!	!	!	!	!	!LO:DY:b:Bi:t=for	!	!	!	!
8BB\	.	4B\	.	16dd\LL	.	16bb\LL	f	4d\	.	.	.
.	.	.	.	16dd\	.	16bb\	.	.	.	.	.
8BB\J	.	.	.	16dd\	.	16bb\	.	.	.	.	.
.	.	.	.	16dd\JJ	.	16bb\JJ	.	.	.	.	.
*	*	*	*	*tremolo	*	*	*	*	*	*	*
8C\L	.	4c\	.	16a\LL	.	16ee\LL	.	4E\	-gna	.	.
.	.	.	.	16a\	.	16ee\	.	.	.	.	.
8C\	.	.	.	16a\	.	16ee\	.	.	.	.	.
.	.	.	.	16a\	.	16ee\JJ	.	.	.	.	.
8E\	.	4e\	.	16a\	.	16cc\LL	.	4c\	a-	.	.
.	.	.	.	16a\	.	16cc\	.	.	.	.	.
8E\J	.	.	.	16a\	.	16cc\	.	.	.	.	.
.	.	.	.	16a\JJ	.	16cc\JJ	.	.	.	.	.
=106	=106	=106	=106	=106	=106	=106	=106	=106	=106	=106	=106
*tremolo	*	*tremolo	*	*	*	*	*	*	*	*	*
.	.	.	.	.	.	.	.	8qqc/	.	.	.
!	!	!	!	!	!LO:DY:b:rj:Bi:t=f&colon;	!	!	!	!	!	!
8D\L	.	8d\L	.	16b 16d/LL	f	16gg\LL	.	8B\L	-mo-	1ryy	1ryy
.	.	.	.	16b 16d/	.	16gg\	.	.	.	.	.
8D\	.	8d\	.	16b 16d/	.	16gg\	.	16A\L	.	.	.
.	.	.	.	16b 16d/	.	16gg\	.	16G\JJ	.	.	.
.	.	.	.	.	.	.	.	8qqG/	.	.	.
8D\	.	8d\	.	16b 16d/	.	16gg\	.	8F#\L	.	.	.
.	.	.	.	16b 16d/	.	16gg\	.	.	.	.	.
8D\J	.	8d\J	.	16b 16d/	.	16gg\	.	16E\L	.	.	.
.	.	.	.	16b 16d/JJ	.	16gg\JJ	.	16D\JJ	.	.	.
.	.	.	.	.	.	.	.	8qqG/	.	.	.
8DD/L	.	8D/L	.	16a 16d/LL	.	16ff#\LL	.	2AM\	.	.	.
.	.	.	.	16a 16d/	.	16ff#\	.	.	.	.	.
8DD/	.	8D/	.	16a 16d/	.	16ff#\	.	.	.	.	.
.	.	.	.	16a 16d/	.	16ff#\	.	.	.	.	.
8DD/	.	8D/	.	16a 16d/	.	16ff#\	.	.	.	.	.
.	.	.	.	16a 16d/	.	16ff#\	.	.	.	.	.
8DD/J	.	8D/J	.	16a 16d/	.	16ff#\	.	.	.	.	.
.	.	.	.	16a 16d/JJ	.	16ff#\JJ	.	.	.	.	.
*Xtremolo	*	*Xtremolo	*	*	*	*	*	*	*	*	*
!	!	!	!	!	!	!LO:LB:g=original	!	!	!	!	!
=107	=107	=107	=107	=107	=107	=107	=107	=107	=107	=107	=107
*	*	*tremolo	*	*	*	*	*	*	*	*	*
!	!	!	!	!	!LO:DY:b:Bi:t=p&colon;	!	!LO:DY:b:Bi:t=p&colon;	!	!	!	!
8GG/L	.	8G/L	.	8g/L	p	8dd\L	p	8D\L	.	1ryy	1ryy
8BB/	.	8B/	.	8g/	.	8dd\	.	16E\L	.	.	.
.	.	.	.	.	.	.	.	16F#\JJ	.	.	.
8BB/	.	8B/	.	8g/	.	8dd\	.	16G\LL	.	.	.
.	.	.	.	.	.	.	.	16A\	.	.	.
8BB/J	.	8B/J	.	8g/J	.	8dd\J	.	16B\	.	.	.
.	.	.	.	.	.	.	.	16c\JJ	.	.	.
*tremolo	*	*	*	*	*	*	*	*	*	*	*
!	!	!	!	!	!	!	!	!LO:LB:g=original	!	!	!
8BB/L	.	8B/L	.	8g/L	.	8dd\L	.	8d\	-re	.	.
8BB/	.	8B/	.	8g/	.	8dd\	.	8r	.	.	.
8BB/	.	8B/	.	8g/	.	8dd\	.	4r	.	.	.
8BB/J	.	8B/J	.	8g/J	.	8dd\J	.	.	.	.	.
=108	=108	=108	=108	=108	=108	=108	=108	=108	=108	=108	=108
8C/L	.	8c\L	.	8g/L	.	8ee\L	.	8E\L	a-	1ryy	1ryy
8C/	.	8c\	.	8g/	.	8ee\	.	16F#\L	-mo-	.	.
.	.	.	.	.	.	.	.	16G\JJ	.	.	.
8C/	.	8c\	.	8g/	.	8ee\	.	16A\LL	.	.	.
.	.	.	.	.	.	.	.	16B\	.	.	.
8C/J	.	8c\J	.	8g/J	.	8ee\J	.	16c\	.	.	.
.	.	.	.	.	.	.	.	16d\JJ	.	.	.
8C/L	.	8c\L	.	8g/L	.	8ee\L	.	4e\	-re	.	.
8C/	.	8c\	.	8g/	.	8ee\	.	.	.	.	.
8C/	.	8c\	.	8g/	.	8ee\	.	4r	.	.	.
8C/J	.	8c\J	.	8g/J	.	8ee\J	.	.	.	.	.
=109	=109	=109	=109	=109	=109	=109	=109	=109	=109	=109	=109
*	*	*	*	*^	*	*	*	*	*	*	*
!	!	!	!	!	!	!LO:DY:b:rj:Bi:t=f&colon;	!	!LO:DY:b:Bi:t=f&colon;	!	!	!	!
8D\L	.	8d\L	.	16b 16d/LL	2ryy	f	16gg\LL	f	2D\	Di-	1ryy	1ryy
.	.	.	.	16b 16d/	.	.	16gg\	.	.	.	.	.
8D\	.	8d\	.	16b 16d/	.	.	16gg\	.	.	.	.	.
.	.	.	.	16b 16d/	.	.	16gg\	.	.	.	.	.
8D\	.	8d\	.	16b 16d/	.	.	16gg\	.	.	.	.	.
.	.	.	.	16b 16d/	.	.	16gg\	.	.	.	.	.
8D\J	.	8d\J	.	16b 16d/	.	.	16gg\	.	.	.	.	.
.	.	.	.	16b 16d/JJ	.	.	16gg\JJ	.	.	.	.	.
.	.	.	.	.	.	.	.	.	16qqG/LL	.	.	.
.	.	.	.	.	.	.	.	.	16qqA/JJ	.	.	.
*	*	*	*	*	*tremolo	*	*	*	*	*	*	*
8DD/L	.	8D/L	.	16a/LL	16d/LL	.	16ff#\LL	.	2AM\	-vi-	.	.
.	.	.	.	16a/	16d/	.	16ff#\	.	.	.	.	.
8DD/	.	8D/	.	16a/	16d/	.	16ff#\	.	.	.	.	.
.	.	.	.	16a/	16d/	.	16ff#\	.	.	.	.	.
8DD/	.	8D/	.	16a/	16d/	.	16ff#\	.	.	.	.	.
.	.	.	.	16a/	16d/	.	16ff#\	.	.	.	.	.
8DD/J	.	8D/J	.	16a/	16d/	.	16ff#\	.	.	.	.	.
.	.	.	.	16a/JJ	16d/JJ	.	16ff#\JJ	.	.	.	.	.
*Xtremolo	*	*Xtremolo	*	*Xtremolo	*Xtremolo	*	*Xtremolo	*	*	*	*	*
*	*	*	*	*v	*v	*	*	*	*	*	*	*
!	!	!	!	!LO:LB:g=original	!	!	!	!	!	!	!
=110	=110	=110	=110	=110	=110	=110	=110	=110	=110	=110	=110
!	!LO:DY:b:Bi:t=fortiſ	!	!LO:DY:b:Bi:t=fortiſ	!	!	!	!	!	!	!	!
4GG|>/	ff	4G/	ff	8g/	.	8g/	.	2G\	-no	1ryy	1ryy
.	.	.	.	4g/	.	4gg\	.	.	.	.	.
4e|\	.	4e\	.	.	.	.	.	.	.	.	.
.	.	.	.	4g/	.	4ff#\	.	.	.	.	.
4d|\	.	4d\	.	.	.	.	.	2r	.	.	.
.	.	.	.	4g/	.	4ee\	.	.	.	.	.
4c|\	.	4c\	.	.	.	.	.	.	.	.	.
.	.	.	.	8g/	.	8dd\	.	.	.	.	.
=111	=111	=111	=111	=111	=111	=111	=111	=111	=111	=111	=111
4B\	.	4B\	.	8g/	.	8dd\	.	0r	.	1ryy	1ryy
.	.	.	.	4g/	.	4ee\	.	.	.	.	.
4c\	.	4c\	.	.	.	.	.	.	.	.	.
.	.	.	.	4g/	.	4dd\	.	.	.	.	.
4B\	.	4B\	.	.	.	.	.	.	.	.	.
.	.	.	.	4g/	.	4cc\	.	.	.	.	.
4A\	.	4A\	.	.	.	.	.	.	.	.	.
.	.	.	.	8g/	.	8b\	.	.	.	.	.
!LO:LB:g=original	!	!LO:LB:g=original	!	!	!	!	!	!	!	!	!
=112	=112	=112	=112	=112	=112	=112	=112	=112	=112	=112	=112
4G|\	.	4G\	.	8g/	.	8b\	.	.	.	1ryy	1ryy
.	.	.	.	4g/	.	4cc\	.	.	.	.	.
4E|\	.	4e\	.	.	.	.	.	.	.	.	.
.	.	.	.	4g/	.	4b\	.	.	.	.	.
4D|\	.	4d\	.	.	.	.	.	.	.	.	.
.	.	.	.	4g/	.	4a\	.	.	.	.	.
4C#X|\	.	4c#X\	.	.	.	.	.	.	.	.	.
.	.	.	.	8g/	.	8b-X\	.	.	.	.	.
=113	=113	=113	=113	=113	=113	=113	=113	=113	=113	=113	=113
2D\	.	2d;\	.	2g\	.	2bn\	.	2G;\	a-	1ryy	1ryy
2r;	.	2r	.	2r;	.	2r;	.	2AM\	-mo-	.	.
=114	=114	=114	=114	=114	=114	=114	=114	=114	=114	=114	=114
*tremolo	*	*	*	*tremolo	*	*	*	*	*	*	*
!	!	!	!	!	!	!LO:TX:t=P:problem:mixed beam	!	!	!	!	!
8BB\L	.	8G/L	.	16d 16G/LL	.	8g/L	.	2G\	-re	1ryy	1ryy
.	.	.	.	16d 16G/	.	.	.	.	.	.	.
8BB\	.	8B/	.	16d 16G/	.	8gg\J	.	.	.	.	.
.	.	.	.	16d 16G/	.	.	.	.	.	.	.
8BB\	.	8B/	.	16d 16G/	.	4.gg\	.	.	.	.	.
.	.	.	.	16d 16G/	.	.	.	.	.	.	.
8BB\J	.	8B/J	.	16d 16G/	.	.	.	.	.	.	.
.	.	.	.	16d 16G/JJ	.	.	.	.	.	.	.
*	*	*tremolo	*	*	*	*	*	*	*	*	*
8BB\L	.	8B/L	.	16d 16G/LL	.	.	.	2r	.	.	.
.	.	.	.	16d 16G/	.	.	.	.	.	.	.
8BB\	.	8B/	.	16d 16G/	.	8ffn|\L	.	.	.	.	.
.	.	.	.	16d 16G/	.	.	.	.	.	.	.
8BB\	.	8B/	.	16d 16G/	.	8ee|\	.	.	.	.	.
.	.	.	.	16d 16G/	.	.	.	.	.	.	.
8BB\J	.	8B/J	.	16d 16G/	.	8dd#X|\J	.	.	.	.	.
.	.	.	.	16d 16G/JJ	.	.	.	.	.	.	.
!	!	!	!	!	!	!LO:LB:g=original	!	!	!	!	!
=115	=115	=115	=115	=115	=115	=115	=115	=115	=115	=115	=115
8C\L	.	8c\L	.	16e 16G/LL	.	(8dd#X\L	.	00r	.	1ryy	1ryy
.	.	.	.	16e 16G/	.	.	.	.	.	.	.
8C\	.	8c\	.	16e 16G/	.	8ee\J)	.	.	.	.	.
.	.	.	.	16e 16G/	.	.	.	.	.	.	.
8C\	.	8c\	.	16e 16G/	.	4ee\	.	.	.	.	.
.	.	.	.	16e 16G/	.	.	.	.	.	.	.
8C\J	.	8c\J	.	16e 16G/	.	.	.	.	.	.	.
.	.	.	.	16e 16G/JJ	.	.	.	.	.	.	.
8C\L	.	8c\L	.	16e 16G/LL	.	8ee|\L	.	.	.	.	.
.	.	.	.	16e 16G/	.	.	.	.	.	.	.
8C\	.	8c\	.	16e 16G/	.	(16ff#\L	.	.	.	.	.
.	.	.	.	16e 16G/	.	16gg\JJ)	.	.	.	.	.
8C\	.	8c\	.	16e 16G/	.	(16ff#\LL	.	.	.	.	.
.	.	.	.	16e 16G/	.	16ee\)	.	.	.	.	.
!	!	!	!	!	!	!LO:SIC:v:s=(16ddn\	!	!	!	!	!
8C\J	.	8c\J	.	16e 16G/	.	(16dd#\	.	.	.	.	.
.	.	.	.	16e 16G/JJ	.	16cc\JJ)	.	.	.	.	.
=116	=116	=116	=116	=116	=116	=116	=116	=116	=116	=116	=116
8D\L	.	8d\L	.	16g 16B/LL	.	16b\KL	.	.	.	1ryy	1ryy
.	.	.	.	16g 16B/	.	8.dd\J	.	.	.	.	.
8D\	.	8d\	.	16g 16B/	.	.	.	.	.	.	.
.	.	.	.	16g 16B/	.	.	.	.	.	.	.
8D\	.	8d\	.	16g 16B/	.	16cc\LL	.	.	.	.	.
.	.	.	.	16g 16B/	.	16b\	.	.	.	.	.
8D\J	.	8d\J	.	16g 16B/	.	16a\	.	.	.	.	.
.	.	.	.	16g 16B/JJ	.	16g\JJ	.	.	.	.	.
8DD/L	.	8D/L	.	16f# 16A/LL	.	4d/	.	.	.	.	.
.	.	.	.	16f# 16A/	.	.	.	.	.	.	.
8DD/	.	8D/	.	16f# 16A/	.	.	.	.	.	.	.
.	.	.	.	16f# 16A/	.	.	.	.	.	.	.
8DD/	.	8D/	.	16f# 16A/	.	4aM/	.	.	.	.	.
.	.	.	.	16f# 16A/	.	.	.	.	.	.	.
8DD/J	.	8D/J	.	16f# 16A/	.	.	.	.	.	.	.
.	.	.	.	16f# 16A/JJ	.	.	.	.	.	.	.
*Xtremolo	*	*Xtremolo	*	*	*	*	*	*	*	*	*
=117	=117	=117	=117	=117	=117	=117	=117	=117	=117	=117	=117
*	*	*	*	*^	*	*	*	*	*	*	*
8G\L	.	8g\L	.	16d/LL	16B\LL	.	4g/	.	.	.	1ryy	1ryy
.	.	.	.	16d/	16B\	.	.	.	.	.	.	.
8D\	.	8d\	.	16d/	16B\	.	.	.	.	.	.	.
.	.	.	.	16d/	16B\	.	.	.	.	.	.	.
8G\	.	8g\	.	16d/	16B\	.	8bb|\L	.	.	.	.	.
.	.	.	.	16d/	16B\	.	.	.	.	.	.	.
8D\J	.	8d\J	.	16d/	16B\	.	8bb|\J	.	.	.	.	.
.	.	.	.	16d/JJ	16B\JJ	.	.	.	.	.	.	.
8G\L	.	8g\L	.	16d/LL	16B\LL	.	4bb|\	.	.	.	.	.
.	.	.	.	16d/	16B\	.	.	.	.	.	.	.
8D\	.	8d\	.	16d/	16B\	.	.	.	.	.	.	.
.	.	.	.	16d/	16B\	.	.	.	.	.	.	.
8G\	.	8g\	.	16d/	16B\	.	4bb|\	.	.	.	.	.
.	.	.	.	16d/	16B\	.	.	.	.	.	.	.
8D\J	.	8d\J	.	16d/	16B\	.	.	.	.	.	.	.
.	.	.	.	16d/JJ	16B\JJ	.	.	.	.	.	.	.
=118	=118	=118	=118	=118	=118	=118	=118	=118	=118	=118	=118	=118
8F#\L	.	8f#\L	.	16d/LL	16A\LL	.	4ccc|\	.	.	.	1ryy	1ryy
.	.	.	.	16d/	16A\	.	.	.	.	.	.	.
8D\	.	8d\	.	16d/	16A\	.	.	.	.	.	.	.
.	.	.	.	16d/	16A\	.	.	.	.	.	.	.
8F#\	.	8f#\	.	16d/	16A\	.	8cc|\L	.	.	.	.	.
.	.	.	.	16d/	16A\	.	.	.	.	.	.	.
8D\J	.	8d\J	.	16d/	16A\	.	8cc|\J	.	.	.	.	.
.	.	.	.	16d/JJ	16A\JJ	.	.	.	.	.	.	.
8F#\L	.	8f#\L	.	16d/LL	16A\LL	.	8.cc|\L	.	.	.	.	.
.	.	.	.	16d/	16A\	.	.	.	.	.	.	.
8D\	.	8d\	.	16d/	16A\	.	.	.	.	.	.	.
.	.	.	.	16d/	16A\	.	(32b\LL	.	.	.	.	.
.	.	.	.	.	.	.	32cc\JJJ)	.	.	.	.	.
8F#\	.	8f#\	.	16d/	16A\	.	8dd\L	.	.	.	.	.
.	.	.	.	16d/	16A\	.	.	.	.	.	.	.
8D\J	.	8d\J	.	16d/	16A\	.	8cc\J	.	.	.	.	.
.	.	.	.	16d/JJ	16A\JJ	.	.	.	.	.	.	.
!	!	!	!	!LO:LB:g=original	!	!	!	!	!	!	!	!
=119	=119	=119	=119	=119	=119	=119	=119	=119	=119	=119	=119	=119
8G\L	.	8g\L	.	16d/LL	16B\LL	.	4b\	.	0r	.	1ryy	1ryy
.	.	.	.	16d/	16B\	.	.	.	.	.	.	.
8D\	.	8d\	.	16d/	16B\	.	.	.	.	.	.	.
.	.	.	.	16d/	16B\	.	.	.	.	.	.	.
8G\	.	8g\	.	16d/	16B\	.	8bb|\L	.	.	.	.	.
.	.	.	.	16d/	16B\	.	.	.	.	.	.	.
8D\J	.	8d\J	.	16d/	16B\	.	8bb|\J	.	.	.	.	.
.	.	.	.	16d/JJ	16B\JJ	.	.	.	.	.	.	.
8G\L	.	8g\L	.	16d/LL	16B\LL	.	4bb|\	.	.	.	.	.
.	.	.	.	16d/	16B\	.	.	.	.	.	.	.
8D\	.	8d\	.	16d/	16B\	.	.	.	.	.	.	.
.	.	.	.	16d/	16B\	.	.	.	.	.	.	.
8G\	.	8g\	.	16d/	16B\	.	4bb|\	.	.	.	.	.
.	.	.	.	16d/	16B\	.	.	.	.	.	.	.
8D\J	.	8d\J	.	16d/	16B\	.	.	.	.	.	.	.
.	.	.	.	16d/JJ	16B\JJ	.	.	.	.	.	.	.
!LO:LB:g=original	!	!LO:LB:g=original	!	!	!	!	!	!	!	!	!	!
=120	=120	=120	=120	=120	=120	=120	=120	=120	=120	=120	=120	=120
*	*	*	*	*	*tremolo	*	*	*	*	*	*	*
8F#\L	.	8f#\L	.	16d/LL	16A\LL	.	4ccc\	.	.	.	1ryy	1ryy
.	.	.	.	16d/	16A\	.	.	.	.	.	.	.
8D\	.	8d\	.	16d/	16A\	.	.	.	.	.	.	.
.	.	.	.	16d/	16A\	.	.	.	.	.	.	.
8F#\	.	8f#\	.	16d/	16A\	.	8cc\L	.	.	.	.	.
.	.	.	.	16d/	16A\	.	.	.	.	.	.	.
8D\J	.	8d\J	.	16d/	16A\	.	8cc\J	.	.	.	.	.
.	.	.	.	16d/JJ	16A\JJ	.	.	.	.	.	.	.
8F#\L	.	8f#\L	.	16d/LL	16A\LL	.	8.cc\L	.	.	.	.	.
.	.	.	.	16d/	16A\	.	.	.	.	.	.	.
8D\	.	8d\	.	16d/	16A\	.	.	.	.	.	.	.
.	.	.	.	16d/	16A\	.	32b\LL	.	.	.	.	.
.	.	.	.	.	.	.	32cc\JJJ	.	.	.	.	.
8F#\	.	8f#\	.	16d/	16A\	.	8dd\L	.	.	.	.	.
.	.	.	.	16d/	16A\	.	.	.	.	.	.	.
8D\J	.	8d\J	.	16d/	16A\	.	8cc\J	.	.	.	.	.
.	.	.	.	16d/JJ	16A\JJ	.	.	.	.	.	.	.
*	*	*	*	*Xtremolo	*Xtremolo	*	*	*	*	*	*	*
*	*	*	*	*v	*v	*	*	*	*	*	*	*
!	!	!	!	!	!	!LO:LB:g=original	!	!	!	!	!
=121	=121	=121	=121	=121	=121	=121	=121	=121	=121	=121	=121
4G\	.	4g\	.	4d/	.	4b 4d/	.	1r	.	1ryy	1ryy
4GG/	.	4G/	.	4b 4d/	.	4gg 4b 4d/	.	.	.	.	.
4GG/	.	4G/	.	4b 4d/	.	4gg 4b 4d/	.	.	.	.	.
4r;	.	4r;	.	4r	.	4r;	.	.	.	.	.
!	!	!LO:TX:b:t=il fine	!	!	!	!	!	!LO:TX:b:t=il fine	!	!	!
==	==	==	==	==	==	==	==	==;	==	==	==
*-	*-	*-	*-	*-	*-	*-	*-	*-	*-	*-	*-
!!!system-decoration: [g1][g2]g3
!!!RDF**kern: | = vertical stroke
!!!RDF**kern: > = above
!!!RDF**kern: < = below
!!!AIN: 1 bass 1 cemba 2 soprn 1 viola 2 violn
!!!ENC: Katarzyna Serwa
!!!END: 2022-01-28
!!!ENC: Andrzej Gręziak
!!!END: 2020-10-06
